**kern	**kern	**kern	**kern	**dynam
*part4	*part3	*part2	*part1	*part1
*staff4	*staff3	*staff2	*staff1	*
*I"Cello	*I"Viola	*I"2nd Violin	*I"1st Violin	*
*clefF4	*clefC3	*clefG2	*clefG2	*
*k[]	*k[]	*k[]	*k[]	*
*C:	*C:	*C:	*C:	*
*M2/4	*M2/4	*M2/4	*M2/4	*
=1	=1	=1	=1	=1
!	!	!	!LO:TX:a:B:t=Introduzione	!
!	!	!	!LO:TX:a:t=Andante espressivo	!
2r	2r	2r	16r	.
.	.	.	(16eeLL	p
.	.	.	16ff	.
.	.	.	16eeJJ)	.
.	.	.	(16eeLL	.
.	.	.	16dd	.
.	.	.	16cc	.
.	.	.	16bJJ)	.
=2	=2	=2	=2	=2
2r	2r	16r	(8ccL	.
.	.	(16eeLL	.	.
.	.	16ff	8ddJ	.
.	.	16eeJJ)	.	.
.	.	(16eeLL	[4ee)	.
.	.	16dd	.	.
.	.	16cc	.	.
.	.	16bJJ)	.	.
=3	=3	=3	=3	=3
2r	2r	(8ccL	16eeLL]	.
.	.	.	(16ee	.
.	.	8ddJ	16aa	.
.	.	.	16ffJJ	.
.	.	4ee	16eeLL	.
.	.	.	16cc	.
.	.	.	16b	.
.	.	.	16aJJ	.
=4	=4	=4	=4	=4
2r	16r	8g#XL	8ddL	.
.	(16eLL	.	.	.
.	16f	8aJ	[8ccJ	.
.	16eJJ)	.	.	.
.	(16eLL	8g#L	16ccLL]	.
.	16d	.	16b	.
.	16c	16aL	16a	.
.	16BJJ)	16bJJ	16g#XJJ)	.
=5	=5	=5	=5	=5
16r	(8cL	8eL	(8b	.
(16ELL	.	.	.	.
16F	8dJ)	8aJ	4a	.
16EJJ)	.	.	.	.
(16ELL	[4e	8BL	.	.
16D	.	.	.	.
16C	.	[8eJ)	8g#X	.
16BBJJ)	.	.	.	.
=6	=6	=6	=6	=6
(8CL	16eLL]	(8eL]	8a)	.
.	(16A	.	.	.
8DJ	16B	8fJ	(4a	.
.	16AJJ)	.	.	.
4E)	(16ALL	8BL	.	.
.	16G	.	.	.
.	16F#X	[8eJ	8gn	.
.	16EJJ)	.	.	.
=7	=7	=7	=7	=7
(8AAL	(8cL	8eL]	16fnLL)	.
.	.	.	(16ff	.
8BBJ	[8GJ)	8dJ	16gg	.
.	.	.	16ffJJ)	.
8CL	16GLL]	8eL	(16ffLL	.
.	(16GJ	.	16ee	.
16DL	8cJ)	16fL	16dd	.
16EJJ)	.	16gJJ	16ccJJ	.
=8	=8	=8	=8	=8
!!linebreak:original
(8DDL	4r	16fLL)	8b-XL	.
.	.	(16f	.	.
8EE	.	16g	8ccJ	.
.	.	32cL	.	.
.	.	32fJJJ)	.	.
!	!	!	!	!
8FF	8r	(16fLL	8aL)	.
.	.	16e	.	.
8FF#XJ)	(8D	16d	([8aJ	.
.	.	16cJJ)	.	.
=9	=9	=9	=9	=9
16GGLL	8FL	(8BL	8a]	.
(16GG	.	.	.	.
16AA	8EJ	8cJ	[4.g)	.
16GGJJ)	.	.	.	.
(16GGLL	8DL	8BL	.	.
16FFn	.	.	.	.
!	!	!	!	!
16EE	16EL	16cL	.	.
16DDJJ)	16FJJ)	16dJJ	.	.
=10	=10	=10	=10	=10
(8CCL	8GL	16eLL)	4g_	.
.	.	(16e	.	.
8DDJ	[8GJ	16f	.	.
.	.	16BJJ	.	.
4EE)	16GLL]	16dLL	16gLL]	.
!	!	!	!	!
.	(16G	16c	(16g	.
.	16G#X	16B	16ee	.
!	!	!	!	!
.	16BJJ)	[16dJJ)	16g#XJJ)	.
=11	=11	=11	=11	=11
2FF	(16G#XKL	16dKL]	(16bLL	.
.	[8.AJ)	(8c	16a	.
.	.	.	16aa	.
.	.	[16c#XJk	16eeJJ	.
.	16ALL]	16c#KL]	16ffLL	.
.	(16A	8d	16dd	.
.	16G#	.	16b	.
.	16AJJ)	16d#XJk	16aJJ)	.
=12	=12	=12	=12	=12
4.EE	(8BL	16eLL)	(8g#XL	.
.	.	(16e	.	.
.	8c	16.f	8a	.
.	.	32eJJk)	.	.
.	8BJ)	(16eLL	8g#J)	.
.	.	16dn	.	.
8r	8r	16c	16.r	.
.	.	16BJJ)	.	.
.	.	.	(32a	.
=13	=13	=13	=13	=13
*	*	*^	*	*
(4AA	16r	(8.gL	(4c#X	8..eeL	.
!	!	!	!	!	!
.	(16aLL	.	.	.	.
.	16b-X	.	.	.	.
.	16aJJ	16aJk)	.	.	.
.	.	.	.	32ffkk	p
4D)	16gLL	4a	4d)	8ddJ)	.
.	16f	.	.	.	.
.	16e	.	.	16.r	.
.	16dJJ)	.	.	.	.
.	.	.	.	(32a	.
=14	=14	=14	=14	=14	=14
(4AA	16r	(8.gL	(4c#X	8..eeL	.
!	!	!	!	!	!
.	(16aLL	.	.	.	.
.	16b-X	.	.	.	.
.	16aJJ	16aJk)	.	.	.
.	.	.	.	32ffkk	p
4D)	16gLL	4a	4d)	8ddJ)	.
.	16f	.	.	.	.
.	16e	.	.	16.rb	.
.	16dJJ)	.	.	.	.
.	.	.	.	(32e	.
*	*	*v	*v	*	*
=15	=15	=15	=15	=15
!	!	!	!	!
(4GG#X	16r	(8.dL	8..bL	.
.	(16eLL	.	.	.
.	16f	.	.	.
!	!	!	!	!
.	16eJJ	16eJk)	.	.
.	.	.	32cckk	.
8AAL)	16dLL	(8eL	8aJ)	.
.	16c	.	.	.
8DDJ	16B	8f'J)	(16aLL	.
.	16AJJ)	.	16bJJ)	.
=16	=16	=16	=16	=16
!!linebreak:original
(8EE'L	(16G#XLL	(8eL	(8ccL	.
.	16A	.	.	.
!	!	!	!	!
8EE'J)	16c	8dJ)	8g#XJ	.
.	16BJJ	.	.	.
4FF	16ALL	8dL	4a)	.
.	16F	.	.	.
.	16C#X	16.r	.	.
.	16DJJ)	.	.	.
.	.	(32aJkk	.	.
=17	=17	=17	=17	=17
(4C#X [4A	16r	8..eeL	16r	.
.	(16gLL	.	(16ggLL	.
.	16b-X	.	16bb-X	.
.	16aJJ	.	16aaJJ	.
.	.	32ffkk	.	.
4D) 4A]	16gLL	8ddJ)	16ggLL	.
.	16f	.	16ff	.
.	16e	16.r	16ee	.
.	16dJJ)	.	16ddJJ)	.
.	.	(32a	.	.
=18	=18	=18	=18	=18
(4C#X [4A	16r	8..eeL	16r	.
.	(16gLL	.	(16ggLL	.
.	16b-X	.	16bb-X	.
.	16aJJ	.	16aaJJ	.
.	.	32ffkk	.	.
4D) 4A]	16gLL	8ddJ)	16ggLL	.
.	16f	.	16ff	.
.	16e	16.rb	16ee	.
.	16dJJ)	.	16ddJJ)	.
.	.	(32e	.	.
=19	=19	=19	=19	=19
(4GG#X	16r	8..bL	16r	.
.	(16dLL	.	(16ddLL	.
.	16f	.	16ff	.
.	16eJJ	.	16eeJJ	.
.	.	32cckk	.	.
8AAL)	16dLL	8aJ)	16ddLL	.
.	16c	.	16cc	.
8DDJ	16Bn	(16aLL	16b	.
.	16AJJ)	16bJJ)	16aJJ)	.
=20	=20	=20	=20	=20
(8EE'L	(16G#XLL	(8ccL	(16g#XLL	.
.	16A	.	16a	.
8EE'J)	16c	8g#XJ	16cc	.
.	16BJJ	.	16bJJ)	.
8FFL	8AL)	16aLL)	8.aL	.
.	.	(16e	.	.
(8FF#XJ	16r	16d	.	.
.	(16EJk	16cJJ	(16ccJk	.
=21	=21	=21	=21	=21
!	!	!	!	!
8GGL)	16DKL	16BLL)	8.bL)	.
.	8B)	(16f	.	.
(8GG#XJ	.	16e	.	.
.	(16FJk	16dJJ	(16ddJk	.
!	!	!	!	!
16AALL)	16EKL	16cLL)	16ccLL)	.
(16BB	8G)	(16f	(16ff	.
16C	.	16e	16ee	.
16C#XJJ	[16B-XJk	16gJJ	16ggJJ	.
=22	=22	=22	=22	=22
16DLL)	16B-KL]	16fLL)	16ffLL)	.
(16E	8c	(16b-X	(16bb-X	.
16F	.	16a	16aa	.
16G#XJJ	(16fJk	16bnJJ	16dddJJ	.
16A)	16e)	16cc)	16ccc)	.
16r	16r	16r	16r	.
16FF'	16c' 16f	16a' 16dd#X	16cc' 16aa	.
!	!	!	!	!
16r	16r	16r	16r	.
=23	=23	=23	=23	=23
8r	8r	8r	8r	.
16EE'	16c' 16e 16a	16A' 16e 16a 16ee	16e' 16cc 16aa	.
16r	16r	16r	16r	.
4r	4r	4r	4r	.
=24	=24	=24	=24	=24
!!linebreak:original
8r	8r	16r	8r	.
.	.	(16eLL	.	.
(8DL	(4B	16f	(4a	.
.	.	16eJJ)	.	.
8E	.	(16eLL	.	.
.	.	16d	.	.
8EEJ)	[8e)	16c	8g#X	.
.	.	16BJJ	.	.
=25	=25	=25	=25	=25
[2AA	8eL]	8cL)	16aLL)	.
.	.	.	(16ee	.
.	(8c#XJ	(8gJ 8b-X	16ff	.
.	.	.	16eeJJ)	.
.	8dL	8fL 8a	16eeLL	.
.	.	.	16dd	.
.	16eL	8g#XJ	16cc	.
.	16dJJ	.	16bJJ)	.
=26	=26	=26	=26	=26
2AA_	16cnLL)	8eL)	(8aL	.
.	(16e	.	.	.
.	16f	(8c#XJ 8g	8b-XJ	.
.	[16eJJ)	.	.	.
.	(16eLL]	8dL 8f	8aL)	.
.	16d	.	.	.
.	16c	8d#XJ 8f#X	(8aJ	.
.	16BJJ)	.	.	.
=27	=27	=27	=27	=27
4.AA]	(16eLL	8eL)	8g#XL	.
.	16d	.	.	.
.	16c#X	(8eJ	8gnJ	.
.	16AJJ	.	.	.
.	16dLL	8dnL)	8fL)	.
.	16B	.	.	.
[8AA	16A	(8BJ 8d	(8fJ	.
.	16G#XJJ)	.	.	.
=28	=28	=28	=28	=28
8AAL]	(16ALL	8cL)	8eL)	.
.	16cn	.	.	.
!	!	!	!	!
[8AAJ 8E	16e	(8BJ	(8G#XJ [8e	.
!	!	!	!	!
.	16EJJ)	.	.	.
8AAL]	(16ALL	8cL)	8AL) 8e]	.
.	16c	.	.	.
[8AAJ 8E	16e	(8BJ	(8G#J [8e	.
.	16EJJ)	.	.	.
=29	=29	=29	=29	=29
!	!	!	!	!
8AAL]	8AL	8cL)	8AL) 8e]	.
(8AA'J 8E	(8C'J	(8A'J	(8A'J	.
8AA') 8E	8C')	8A')	8A')	.
16.r;	16.r;	16.r;	16.r;	.
32A	32c	32e	32a	.
=30||	=30||	=30||	=30||	=30||
!LO:TX:b:i:t=string.	!LO:TX:b:i:t=string.	!LO:TX:b:i:t=string.	!LO:TX:b:i:t=string.	!
8.G	8.c	8.e	8.b-X	.
32r	32r	32r	32r	.
32A	32c	32e	32b-	.
8.F	8.c	8.b-X	8.gg	.
32r	32r	32r	32r	.
32F	32c	32b-	32gg	.
=31	=31	=31	=31	=31
8.E	8.c	8.g 8.b-X	8.cc	.
32r	32r	32r	32r	.
32E	32c	32g	32cc	.
8.D	8.c	8.f 8.b-	8.cc 8.bb-X	.
32r	32r	32r	32r	.
32D	32c	32f 32b-	32cc 32bb-	.
=32	=32	=32	=32	=32
!!linebreak:original
!LO:TX:b:i:t=rit.	!LO:TX:b:i:t=rit.	!LO:TX:b:i:t=rit.	!LO:TX:b:i:t=rit.	!
*	*^	*	*	*
4C	4c	4ryy	4e 4b-X	4cc 4ee	.
.	16qqF/	.	.	.	.
4D	4FT	34.Fyy	4f 4b-	4cc 4ff	.
.	.	1%0G/yy	.	.	.
.	.	1%0F/yy	.	.	.
.	.	1%0G/yy	.	.	.
.	.	1%0F/yy	.	.	.
.	.	1%0G/yy	.	.	.
.	.	1%0F/yy	.	.	.
.	.	1%0G/yy	.	.	.
.	.	1%0F/yy	.	.	.
.	.	1%0G/yy	.	.	.
.	.	1%0F/yy	.	.	.
.	.	1%0G/yy	.	.	.
.	.	1%0F/yy	.	.	.
.	.	1%0G/yy	.	.	.
.	.	1%0F/yy	.	.	.
*	*v	*v	*	*	*
.	16qqF/LL	.	.	.
.	16qqE/JJ	.	.	.
=33	=33	=33	=33	=33
.	.	.	16qqG/KL	.
.	.	.	8qqe/	.
.	.	.	8qqcc/J	.
.	.	.	.	.
!LO:TX:b:i:t=attaca	!	!	!	!
4r;	4r;	4r;	4r;	.
=34||	=34||	=34||	=34||	=34||
*k[b-]	*k[b-]	*k[b-]	*k[b-]	*
*F:	*F:	*F:	*F:	*
*M6/8	*M6/8	*M6/8	*M6/8	*
!	!	!	!LO:TX:a:B:t=Allegro	!
[2.FF	(2.F	(2.c	([4.a	.
.	.	.	8aL]	.
.	.	.	8g	.
.	.	.	8fJ	.
=35	=35	=35	=35	=35
2.FF]	[4.A	2.e-X)	[4.cc	.
.	8AL]	.	8ccL]	.
.	8B-	.	8b-	.
.	8cJ)	.	8aJ)	.
=36!|:	=36!|:	=36!|:	=36!|:	=36!|:
4.F	(4.B-	4.d 4.b-	(4.dd	.
[4.F^	[4.d^	[4.f^ [4.b-	[4.ff	.
=37	=37	=37	=37	=37
4.F]	4d]	4f] 4b-]	4ff]	.
.	8B-	8f	8dd	.
4.F	4.A)	4.f	4.cc)	.
=38	=38	=38	=38	=38
4.C	(4.G	4.en	(4.b-	.
([4.C^	[4.B-^	[4.e^	[4.dd	.
=39	=39	=39	=39	=39
4.C]	4B-]	4e]	4dd]	.
.	8G	(8e	8b-	.
4.F)	4.F)	4.f)	4.a)	.
=40	=40	=40	=40	=40
4.C	4.B-	4.e	(4.g	.
[4.C^	[4.B-^	[4.e^	[4.b-	.
=41	=41	=41	=41	=41
4C]	4B-]	4e]	4b-]	.
(8C	(8B-	(8e	8g	.
4.FF)	4.A)	4.f)	4.f)	.
=42	=42	=42	=42	=42
2.r	34%25r	2.r	([4.a	.
.	.	.	8aL]	.
.	.	.	8g	.
.	.	.	8fJ	.
=43	=43	=43	=43	=43
.	([4.A	.	.	.
(2.F	.	2.e-X	[4.cc	.
.	8AL]	.	.	.
.	.	.	8ccL]	.
.	8G#X	.	.	.
.	.	.	8bn	.
.	8AJ)	.	.	.
.	.	.	8aJ)	.
=44	=44	=44	=44	=44
.	(4.Bn	.	.	.
4.E)	.	4.d 4.g#X	(4.dd	.
.	[4.d^	.	.	.
[4.E^	.	[4.g#^	[4.ff^	.
=45	=45	=45	=45	=45
.	4d]	.	.	.
4E]	.	4g#]	4ff]	.
.	8Bn	.	.	.
8E	.	(8g#X	8dd	.
.	4.A)	.	.	.
4.A	.	4.a)	4.cc)	.
=46	=46	=46	=46	=46
!!linebreak:original
.	(4.c	.	.	.
!!linebreak:original
2.r	.	4r	(4.cc	.
.	.	8r	.	.
.	[4.a^	.	.	.
.	.	[4.cc^	[4.aa	.
=47	=47	=47	=47	=47
.	4a]	.	.	.
4.F	.	4.cc]	4aa]	.
.	8a	.	.	.
.	.	.	8ff	.
.	4.g)	.	.	.
[4.G	.	4.cc	4.ee)	.
=48	=48	=48	=48	=48
.	(4.f	.	.	.
2.G]	.	4.bn	(4.dd	.
.	[4.d^	.	.	.
.	.	[4.b^	[4.ff	.
=49	=49	=49	=49	=49
.	4d]	.	.	.
4G	.	4b]	4ff]	.
.	8f	.	.	.
(8G	.	(8bn	8dd	.
.	4.e)	.	.	.
4C)	.	4cc)	4cc)	.
8r	.	8r	8r	.
=50	=50	=50	=50	=50
.	(8CL	.	.	.
!LO:TX:a:t=pizz.	!	!	!	!
8C	.	4.e	([4.cc	.
.	8G	.	.	.
8r	.	.	.	.
.	8AJ	.	.	.
8r	.	.	.	.
.	8B-X)	.	.	.
4r	.	4r	8ccL]	.
.	8r	.	.	.
.	.	.	8ee	.
.	8r	.	.	.
8r	.	8r	8ffJ	.
=51	=51	=51	=51	=51
.	34%25r	.	.	.
2.r	.	2.r	8aaL	.
.	.	.	8gg	.
.	.	.	8ffJ	.
.	.	.	8eeL	.
.	.	.	8dd	.
.	.	.	8ccJ)	.
=52	=52	=52	=52	=52
.	(4.A	.	.	.
!LO:TX:a:t=arco	!	!	!	!
4.C	.	(4.f#X	([4.dd	.
.	4.B-	.	.	.
[4.C	.	4.g	8ddL]	.
.	.	.	8ee	.
.	.	.	8ddJ	.
=53	=53	=53	=53	=53
.	4.E	.	.	.
4.C]	.	4.b-	[4.cc	.
.	4.F)	.	.	.
[4.C	.	4.a)	8ccL]	.
.	.	.	8dd	.
.	.	.	[8ccJ)	.
=54	=54	=54	=54	=54
.	(4.D	.	.	.
4.C]	.	(4.fn	(4cc]	.
.	.	.	[8bn	.
.	4.E	.	.	.
[4.C	.	4.g	4b]	.
.	.	.	[8b-X	.
=55	=55	=55	=55	=55
.	4.F	.	.	.
4.C]	.	4.c	4b-]	.
.	.	.	8a	.
.	4.D)	.	.	.
4.C	.	4.Bn)	4g	.
.	.	.	8f)	.
=56	=56	=56	=56	=56
.	2.C	.	.	.
([4.C	.	(4.c 4.f	2.cc	.
8CL]	.	4e)	.	.
8E	.	.	.	.
8FJ	.	8r	.	.
=57	=57	=57	=57	=57
.	34%25r	.	.	.
8AL	.	2.r	2.r	.
8G	.	.	.	.
8FJ	.	.	.	.
8EL	.	.	.	.
8D	.	.	.	.
8CJ)	.	.	.	.
=58	=58	=58	=58	=58
!!linebreak:original
.	[2.F	.	.	.
!!linebreak:original
4.AA	.	4.c	[4.f	.
[4.BB-	.	[4.d-X	4f]	.
.	.	.	8g-X	<
=59	=59	=59	=59	=59
.	4.F]	.	.	.
4.BB-]	.	4.d-]	4dd-X	.
.	.	.	8b-	[
.	4r	.	.	.
4r	.	4r	4g-X	.
.	8r	.	.	.
8r	.	8r	8gn	.
=60	=60	=60	=60	=60
!	!LO:TX:b:i:t=cresc.	!	!	!
!	!LO:TX:a:i:t=cresc.	!	!	!
.	[2.F	.	.	.
!LO:TX:b:i:t=cresc.	!	!	!	!
4.BBn	.	4.d	[4.g	.
[4.C	.	[4.e-X	4g]	.
.	.	.	8a-X	.
=61	=61	=61	=61	=61
.	4.F]	.	.	.
4.C]	.	4.e-]	4ee-X	.
!	!	!	!LO:TX:b:i:t=cresc.	!
.	.	.	8cc	.
.	4r	.	.	.
4r	.	4r	4a-X	.
.	8r	.	.	.
8r	.	8r	8an	.
=62	=62	=62	=62	=62
.	[2.F	.	.	.
4.C#X	.	4.e	[4.a	.
[4.D	.	[4.f	4a]	.
.	.	.	8b-	.
=63	=63	=63	=63	=63
.	4.F]	.	.	.
4.D]	.	4.f]	4ff	.
.	.	.	8dd	.
.	4r	.	.	.
4r	.	4r	4bn	.
.	8Bn	.	.	.
8r	.	8r	8cc	.
=64	=64	=64	=64	=64
.	4f	.	.	.
2.r	.	2.r	4ff	.
.	8d	.	.	.
.	.	.	8dd	.
.	4Bn	.	.	.
.	.	.	4bn	.
.	8c	.	.	.
.	.	.	8cc	.
=65	=65	=65	=65	=65
.	2.c	.	.	.
2.E	.	[4.g [4.b-	[4.cc	.
.	.	4g] 4b-]	8ccL]	.
.	.	.	8bn	.
.	.	8c	8b-XJ	.
=66	=66	=66	=66	=66
.	[4.c	.	.	.
2.F	.	2.c	[4.a	.
.	8cL]	.	.	.
.	.	.	8aL]	p
.	8B-	.	.	.
.	.	.	8g	.
.	8AJ	.	.	.
.	.	.	8fJ	.
=67	=67	=67	=67	=67
.	2.e-X	.	.	.
!	!	!	!LO:TX:b:i:t=cresc.	!
2.FF	.	2.g-X	[4.cc	.
.	.	.	8ccL]	.
.	.	.	8b-	.
.	.	.	8aJ	.
=68	=68	=68	=68	=68
.	4.d	.	.	.
4.BB-	.	4.f	(4.dd	.
.	[4.d^	.	.	.
[4.B-^	.	[4.f^ [4.b-	[4.ff^	.
=69	=69	=69	=69	=69
.	4d]	.	.	.
4B-]	.	4f] 4b-]	4ff]	.
.	(8B-	.	.	.
(8BB-	.	(8f	8dd	.
.	4.A)	.	.	.
4.D)	.	4.f#X)	4.cc)	.
=70	=70	=70	=70	=70
!!linebreak:original
.	(4.G	.	.	.
!!linebreak:original
4.GG	.	4.d	(4.b-	.
.	[4.B-^	.	.	.
[4.G^	.	[4.d^ [4.g	[4.dd^	.
=71	=71	=71	=71	=71
.	4B-]	.	.	.
4G]	.	4d] 4g]	4dd]	.
.	8G	.	.	.
(8GG	.	(8d	8b-	.
.	4.E)	.	.	.
4.AA)	.	4.c#X)	4.a)	.
=72	=72	=72	=72	=72
.	(4.D	.	.	.
(4.D	.	4.d	(4.f	.
.	[4.G^	.	.	.
[4.GG^	.	([4.d^	[4.b-^	.
=73	=73	=73	=73	=73
.	4G]	.	.	.
4GG]	.	4d]	4b-]	.
.	8G	.	.	.
8C	.	[8e	8g	.
.	4.A)	.	.	.
4.AA)	.	4.e])	4.cc)	.
=74	=74	=74	=74	=74
.	(4.A	.	.	.
(4.D	.	4.d	(4.f	.
.	[4.G^)	.	.	.
[4.GG^)	.	[4.d^	[4.b-^	.
=75	=75	=75	=75	=75
!	!LO:TX:b:i:t=dim.	!	!	!
.	4G]	.	.	.
!LO:TX:b:i:t=dim.	!	!LO:TX:b:i:t=dim.	!LO:TX:b:i:t=dim.	!
4GG]	.	4d]	4b-]	.
.	(8B-	.	.	.
(8C	.	(8e	8g	.
.	4.A)	.	.	.
4.FF)	.	4.f)	4.f)	.
=76	=76	=76	=76	=76
.	(4.F	.	.	.
2.r	.	2.r	2.r	.
.	[4.B-^	.	.	.
=77	=77	=77	=77	=77
.	4B-]	.	.	.
2.r	.	2.r	2.r	.
.	8G	.	.	.
.	4.c)	.	.	.
=78	=78	=78	=78	=78
.	(4.F	.	.	.
2.r	.	2.r	2.r	.
.	[4.B-^	.	.	.
=79	=79	=79	=79	=79
.	4B-]	.	.	.
2.r	.	2.r	2.r	.
.	8G	.	.	.
.	4F)	.	.	.
.	8G	.	.	.
=80	=80	=80	=80	=80
.	(4F	.	.	.
(4.c	.	2.r	2.r	.
.	8E)	.	.	.
.	4.D	.	.	.
[4.f^	.	.	.	.
=81	=81	=81	=81	=81
.	([4.F^	.	.	.
4f]	.	2.r	2.r	.
8d	.	.	.	.
.	4F]	.	.	.
4.g)	.	.	.	.
.	8E	.	.	.
=82	=82	=82	=82	=82
.	4.D	.	.	.
(4.c	.	2.r	2.r	.
.	4.C)	.	.	.
[4.f^	.	.	.	.
=83	=83	=83	=83	=83
.	(4G^	.	.	.
4f]	.	2.r	2.r	.
.	8F	.	.	.
[8d	.	.	.	.
.	4E)	.	.	.
4d]	.	.	.	.
.	8B-	.	.	.
8c)	.	.	.	.
=84	=84	=84	=84	=84
.	(4.A	.	.	.
(4.c	.	(4.f	2.r	.
.	[4.d)	.	.	.
!	!	!LO:TX:b:i:t=cresc.	!	!
4.G	.	[4.b-	.	.
=85	=85	=85	=85	=85
!!linebreak:original
.	4d]	.	.	.
!!linebreak:original
[4.c^	.	4b-]	2.r	.
.	[8e	.	.	.
.	.	8g	.	.
.	4.e]	.	.	.
4c]	.	4.cc)	.	.
8B-	.	.	.	.
=86	=86	=86	=86	=86
.	(4.c	.	.	.
4A)	.	(4.f	2.r	.
8r	.	.	.	.
.	[4.d^)	.	.	.
(4.G^	.	[4.b-^	.	.
=87	=87	=87	=87	=87
.	4d]	.	.	.
4c	.	4b-]	2.r	.
.	[8e	.	.	.
8B-	.	[8g	.	.
.	4e]	.	.	.
4A	.	4g]	.	.
.	8c	.	.	.
8e-X)	.	8f)	.	.
=88	=88	=88	=88	=88
.	(4.d	.	.	.
(4.d	.	(4.f	(4.b-	.
.	[4.e-X^)	.	.	.
4.c^	.	[4.g^)	[4.ee-X^	.
=89	=89	=89	=89	=89
.	4e-]	.	.	.
[4.f	.	4g]	4ee-]	.
.	[8f	.	.	.
.	.	[8a	8cc	.
.	4.f]	.	.	.
4f]	.	4.a]	4.ff)	.
8e-X)	.	.	.	.
=90	=90	=90	=90	=90
.	(4.f	.	.	.
(4.d	.	4.f	(4.b-	.
.	[4.e-X^)	.	.	.
4.c	.	[4.g^	[4.ee-X^	.
=91	=91	=91	=91	=91
.	4e-]	.	.	.
[4.f	.	4g]	4ee-]	.
.	[8f	.	.	.
.	.	[8a	8cc	.
.	4.f]	.	.	.
4f]	.	4.a]	4.ff)	.
8e-X)	.	.	.	.
=92	=92	=92	=92	=92
.	4.f	.	.	.
4.D	.	4.f	(4.b-	.
.	8e-XL	.	.	.
8CL	.	8aL	4.ff	.
.	8e-	.	.	.
8C	.	8a	.	.
.	8e-J	.	.	.
8CJ	.	8aJ	.	.
=93	=93	=93	=93	=93
.	8dL	.	.	.
8BB-L	.	8fL	4.b-	.
.	8d	.	.	.
8BB-	.	8f	.	.
.	8dJ	.	.	.
8BB-J	.	8fJ	.	.
.	8e-XL	.	.	.
8CL	.	8aL	4.ff)	.
.	8e-	.	.	.
8C	.	8a	.	.
.	8e-J	.	.	.
8CJ	.	8aJ	.	.
=94	=94	=94	=94	=94
.	8dL	.	.	.
8BB-L	.	8fL	(4.dd	.
.	8d	.	.	.
8BB-	.	8f	.	.
.	8dJ	.	.	.
8BB-J	.	8fJ	.	.
.	8cL	.	.	.
8AA-XL	.	8f#XL	4.cc)	.
.	8c	.	.	.
8AA-	.	8f#	.	.
.	8cJ	.	.	.
8AA-J	.	8f#J	.	.
=95	=95	=95	=95	=95
.	(4.d	.	.	.
(4.GG	.	(4.g	(4.bn	.
.	[4.e-X)	.	.	.
[4.C	.	[4.f#X)	[4.a	.
=96	=96	=96	=96	=96
.	4.e-]	.	.	.
4C]	.	4.f#]	4.a]	.
8GG	.	.	.	.
.	(4.e-X	.	.	.
4.G)	.	(4.A 4.f#X	4.cc)	.
=97	=97	=97	=97	=97
.	4.d	.	.	.
(4.GG	.	4.Bn 4.g	(4.bn	.
.	[4.c) [4.e-X	.	.	.
[4.C	.	[4.f#X)	[4.a	.
=98	=98	=98	=98	=98
!!linebreak:original
.	4.c] 4.e-]	.	.	.
!!linebreak:original
4C]	.	4.f#]	4.a]	.
8GG	.	.	.	.
.	4.c 4.e-X	.	.	.
4.G)	.	(4.A 4.f-X	4.cc	.
=99	=99	=99	=99	=99
.	[4.G	.	.	.
2.GG	.	4.Bn) 4.g	4.d) 4.bn	.
.	8GL]	.	.	.
.	.	4r	4r	.
.	8Bn	.	.	.
.	8cJ	.	.	.
.	.	8r	8r	.
=100	=100	=100	=100	=100
.	8eL	.	.	.
2.FF	.	2.g	2.r	.
.	8d	.	.	.
.	8cJ	.	.	.
.	8BnL	.	.	.
.	8A	.	.	.
.	8GJ	.	.	.
=101	=101	=101	=101	=101
.	8CL 8G	.	.	.
8EEL	.	[4.c	8g 8cc	.
!	!	!	!	!
.	8r	.	.	.
8r	.	.	8r	.
!	!	!	!	!
.	8CJ 8G	.	.	.
8EEJ	.	.	8r	.
.	8C 8G	.	.	.
8EE	.	8cL]	8g 8cc	.
.	8r	.	.	.
8r	.	8e'	8r	.
.	8r	.	.	.
8r	.	8f'J	8r	.
=102	=102	=102	=102	=102
.	34%25r	.	.	.
2.r	.	8g'L	4r	.
.	.	8f'	.	.
.	.	8e'J	(8cc	.
.	.	8d'L	8bnL)	.
.	.	8g'	8r	.
.	.	8f'J	(8ddJ	.
=103	=103	=103	=103	=103
.	34%25r	.	.	.
2.r	.	8e'L	8ccL)	.
.	.	8g'	8r	.
.	.	8c'J	(8eeJ	.
.	.	8Bn'L	8ddL)	.
.	.	8g'	8r	.
.	.	8d'J	(8ffJ	.
=104	=104	=104	=104	=104
.	34%25r	.	.	.
2.r	.	8c'L	8eeL)	.
.	.	8d'	8r	.
.	.	8e'J	(8ggJ	.
.	.	8f'L	8eeL)	.
.	.	8g'	8r	.
.	.	8g#X'J	(8ddJ	.
=105	=105	=105	=105	=105
.	[4.A	.	.	.
8AAL	.	8aL	8eL) 8cc#X	.
8r	.	8r	8r	.
!	!	!	!	!
8AAJ	.	8aJ	8eJ 8cc#	.
.	8AL]	.	.	.
8AA	.	8a	8e 8cc#	.
.	8c#X'	.	.	.
8r	.	8r	8r	.
.	8d'J	.	.	.
8r	.	8r	8r	.
=106	=106	=106	=106	=106
.	8e'L	.	.	.
2.r	.	4r	2.r	.
.	8d'	.	.	.
.	8c#X'J	.	.	.
.	.	(8a	.	.
.	8Bn'L	.	.	.
.	.	8g#XL)	.	.
.	8e'	.	.	.
.	.	8r	.	.
.	8d'J	.	.	.
.	.	(8bnJ	.	.
=107	=107	=107	=107	=107
.	8c#X'L	.	.	.
2.r	.	8aL)	2.r	.
.	8e'	.	.	.
.	.	8r	.	.
.	8A'J	.	.	.
.	.	(8cc#XJ	.	.
.	8G#X'L	.	.	.
.	.	8bnL)	.	.
!	!LO:TX:b:i:t=cresc.	!	!	!
.	8e'	.	.	.
!	!	!LO:TX:b:i:t=cresc.	!	!
.	.	8r	.	.
.	8Bn'J	.	.	.
.	.	(8ddJ	.	.
=108	=108	=108	=108	=108
!!linebreak:original
.	8A'L	.	.	.
!!linebreak:original
2.r	.	8cc#XL)	2.r	.
.	8Bn'	.	.	.
.	.	8r	.	.
.	8c'J	.	.	.
.	.	(8eeJ	.	.
.	8c#X'L	.	.	.
.	.	8aL)	.	.
.	8d'	.	.	.
.	.	8r	.	.
.	8e'J	.	.	.
.	.	8gJ	.	.
=109	=109	=109	=109	=109
.	8DL 8A	.	.	.
[4.D	.	8f#XL 8dd	8dL 8dd	.
.	8r	.	.	.
.	.	8r	8r	.
.	8DJ 8A	.	.	.
.	.	8f#J 8dd	8dJ 8dd	.
.	8D 8A	.	.	.
8DL]	.	8f# 8dd	8d 8dd	.
.	8r	.	.	.
8F#X'	.	8r	8r	.
.	8r	.	.	.
8G'J	.	8r	8r	.
=110	=110	=110	=110	=110
.	4r	.	.	.
8A'L	.	4r	2.r	.
8G'	.	.	.	.
.	(8d	.	.	.
8F#X'J	.	(8dd	.	.
.	8c#XL)	.	.	.
8E'L	.	8cc#XL)	.	.
.	8r	.	.	.
8A'	.	8r	.	.
.	(8eJ	.	.	.
8G'J	.	(8eeJ	.	.
=111	=111	=111	=111	=111
.	8dL)	.	.	.
8F#X'L	.	8ddL)	2.r	.
.	8r	.	.	.
8A'	.	8r	.	.
!	!LO:TX:b:i:t=cresc.	!	!	!
.	(8f#XJ	.	.	.
!LO:TX:b:i:t=cresc.	!	!LO:TX:b:i:t=cresc.	!	!
8D'J	.	(8ff#XJ	.	.
.	8eL)	.	.	.
8C#X'L	.	8eeL)	.	.
.	8r	.	.	.
8A'	.	8r	.	.
.	(8gJ	.	.	.
8E'J	.	(8ggJ	.	.
=112	=112	=112	=112	=112
.	8f#XL)	.	.	.
8D'L	.	8ff#XL)	2.r	.
.	8r	.	.	.
8E'	.	8r	.	.
.	(8aJ	.	.	.
8F#X'J	.	(8aaJ	.	.
.	8f#L)	.	.	.
8G'L	.	8ff#L)	.	.
.	8r	.	.	.
8A'	.	8r	.	.
.	8eJ	.	.	.
8A#X'J	.	8eeJ	.	.
=113	=113	=113	=113	=113
.	[4.Bn	.	.	.
!	!	!	!	!
8BBnL	.	8dd#XL 8bbn	8BnL 8bn	.
8r	.	8r	8r	.
8BnJ	.	8dd#J 8bb	8BJ 8b	.
.	8BL]	.	.	.
8B	.	8dd# 8bb	8B 8b	.
.	8d#X'	.	.	.
8r	.	8r	8r	.
.	8e'J	.	.	.
8r	.	8r	8r	.
=114	=114	=114	=114	=114
.	8f#X'L	.	.	.
4r	.	4r	4r	.
.	8e'	.	.	.
.	8d#X'J	.	.	.
8r	.	(8Bn	(8bn	.
.	8c#X'L	.	.	.
4E	.	8A#XL)	8a#XL)	.
.	8f#'	.	.	.
.	.	8r	8r	.
.	8e'J	.	.	.
8r	.	(8c#XJ	(8cc#XJ	.
=115	=115	=115	=115	=115
.	8d#X'L	.	.	.
4D#X	.	8BnL)	8bnL)	.
.	8f#X'	.	.	.
.	.	8r	8r	.
.	8Bn'J	.	.	.
8r	.	(8d#XJ	(8dd#XJ	.
.	8A#X'L	.	.	.
4AA#X	.	8c#XL)	8cc#XL)	.
.	8f#'	.	.	.
.	.	8r	8r	.
.	8c#X'J	.	.	.
8r	.	(8eJ	(8eeJ	.
=116	=116	=116	=116	=116
.	8Bn'L	.	.	.
4BBn	.	8d#XL)	8dd#XL)	.
.	8c#X'	.	.	.
.	.	8r	8r	.
.	8d'J	.	.	.
8r	.	(8f#XJ	(8ff#XJ	.
.	8d#X'L	.	.	.
4An	.	8Bn)	8bnL)	.
.	8e'	.	.	.
.	.	8r	8r	.
.	8f#X'J	.	.	.
8r	.	8r	8bJ	.
=117	=117	=117	=117	=117
!!linebreak:original
.	4.Bn	.	.	.
!!linebreak:original
2.G	.	(2.e	([4.bn	.
.	[4.B^	.	.	.
.	.	.	8bL]	.
.	.	.	8dd#X	.
.	.	.	8eeJ	.
=118	=118	=118	=118	=118
!	!	!LO:TX:a:i:t=dolce	!	!
.	4.B]	.	.	.
2.A	.	2.f#X	8ggL	.
.	.	.	8ff#X	.
.	.	.	8eeJ	.
.	[4.Bn^	.	.	.
.	.	.	8dd#XL	.
.	.	.	8cc	.
.	.	.	8bnJ)	.
=119	=119	=119	=119	=119
.	4.B]	.	.	.
4.G	.	4.e)	(4.bn	.
.	[4.c^	.	.	.
[4.G^	.	[4.e^	[4.b-X^	.
=120	=120	=120	=120	=120
.	4.c]	.	.	.
4.G]	.	4.e]	4.b-]	.
.	4.c#X	.	.	.
4.G	.	4.e	4.a)	.
=121	=121	=121	=121	=121
.	4A	.	.	.
2.F	.	4.d	([4.a	.
.	8r	.	.	.
.	[4.A^	.	.	.
.	.	(4.d	8aL]	.
.	.	.	8cc#X	.
.	.	.	8ddJ	.
=122	=122	=122	=122	=122
.	4.A]	.	.	.
2.G	.	2.e	8ffL	.
.	.	.	8ee	.
.	.	.	8ddJ	.
.	[4.A^	.	.	.
.	.	.	8cc#XL	.
.	.	.	8b-	.
.	.	.	8aJ)	.
=123	=123	=123	=123	=123
.	4.A]	.	.	.
4.F	.	4.d)	(4.a	.
.	[4.B-^	.	.	.
[4.F^	.	[4.d^	[4.a-X^	.
=124	=124	=124	=124	=124
.	4.B-]	.	.	.
4.F]	.	4.d]	4.a-]	.
.	4.Bn	.	.	.
4.F	.	4.d	4.g)	.
=125	=125	=125	=125	=125
.	4.G	.	.	.
4.E	.	4.c	(4.g	.
.	[4.F#X^	.	.	.
[4.D^	.	[4.c^	[4.a^	.
=126	=126	=126	=126	=126
.	2.F#]	.	.	.
2.D]	.	4.c]	4a]	.
.	.	.	8bn	.
.	.	4.c	4cc	.
.	.	.	8dd)	]
=127	=127	=127	=127	=127
.	4.G	.	.	.
4.E	.	4.c	(4.g	.
.	[4.F#X^	.	.	.
[4.D^	.	[4.c^	[4.a^	.
=128	=128	=128	=128	=128
.	2.F#]	.	.	.
2.D]	.	2.c]	4a]	.
.	.	.	8bn	.
.	.	.	4cc	.
.	.	.	8dd)	.
=129	=129	=129	=129	=129
.	4.G	.	.	.
(4.E	.	4.c	4.g	.
.	[4.F#X	.	.	.
[4.D	.	([4.c	[4.a	.
=130	=130	=130	=130	=130
.	4.F#]	.	.	.
4.D]	.	4.c]	2.a_	.
!	!	!	!	!
.	[4.F#X	.	.	.
[4.C#X	.	[4.c#X	.	.
=131	=131	=131	=131	=131
!!linebreak:original
.	4.F#]	.	.	.
!!linebreak:original
4.C#]	.	4.c#]	4.a]	.
.	[4.F#X	.	.	.
[4.Cn	.	[4.d	[4.a	.
=132	=132	=132	=132	=132
.	4.F#]	.	.	.
4.C])	.	4.d])	4.a]	.
.	([4.Fn^	.	.	.
[4.BBn^	.	([4.d^ [4.a-X	([4.dd^	.
=133	=133	=133	=133	=133
.	4.F]	.	.	.
(4.BB]	.	4.d] 4.a-]	4.dd]	.
!	!	!	!	!
.	[4.E	.	.	.
[4.C)	.	[4.c	[4.g	.
=134	=134	=134	=134	=134
.	4.E])	.	.	.
4.C]	.	4.c])	4.g])	.
.	([4.E-X^	.	.	.
([4.AA^	.	[4.c^ [4.g-X	([4.cc^	.
=135	=135	=135	=135	=135
.	4.E-]	.	.	.
4.AA]	.	4.c] 4.g-]	4.cc]	.
.	[4.En	.	.	.
!	!	!	!	!
[4.GG	.	([4.c	[4.g	.
=136	=136	=136	=136	=136
.	4.E]	.	.	.
4.GG]	.	4.c]	4.g]	.
.	4.F)	.	.	.
4.GG) 4.D	.	4.Bn)	4.Bn)	.
=137	=137	=137	=137	=137
.	2.E	.	.	.
2.CC 2.C	.	[2.c	([4.e	.
.	.	.	8eL]	p
.	.	.	8d	.
.	.	.	8cJ	.
=138	=138	=138	=138	=138
.	([4.B-X	.	.	.
!	!	!	!	!
[2.C	.	2.c_	[4.g	.
.	8B-L]	.	.	.
.	.	.	8gL]	.
.	8A	.	.	.
.	.	.	8f	.
.	8GJ)	.	.	.
.	.	.	8eJ)	.
=139	=139	=139	=139	=139
.	(4.F	.	.	.
2.C_	.	2.c_	(4.a	.
.	[4.A	.	.	.
.	.	.	[4.cc^	.
=140	=140	=140	=140	=140
.	4A]	.	.	.
4.C]	.	(4.c]	4cc]	.
.	8F	.	.	.
.	.	.	8a	.
.	4E	.	.	.
4.C	.	4.Bn)	4g	.
.	8D)	.	.	.
.	.	.	8f)	.
=141	=141	=141	=141	=141
.	2.C	.	.	.
2.CC 2.C	.	([4.c [4.e	(4.e	.
.	.	8cL] 8e]	[4.cc	.
.	.	8d	.	.
.	.	8cJ)	.	.
=142	=142	=142	=142	=142
.	2.C	.	.	.
([4.B-X	.	([4.g	4.cc]	.
8B-L]	.	8gL]	4.cc#X)	.
8A	.	8f	.	.
8GJ)	.	8eJ)	.	.
=143	=143	=143	=143	=143
.	[2.C	.	.	.
(4.F	.	(4.d	(4.dd	.
[4.A	.	[4.f)	[4.ff	.
=144	=144	=144	=144	=144
.	4.C]	.	.	.
4A]	.	4.f]	4ff]	.
8F	.	.	8dd	.
.	4.C	.	.	.
4D	.	4f	4a	.
8G)	.	8f	8bn)	.
=145	=145	=145	=145	=145
.	4C	.	.	.
4C	.	([4.e	4cc	.
.	8r	.	.	.
8r	.	.	8r	.
.	4r	.	.	.
4r	.	8eL]	4r	.
.	.	8d	.	.
.	8r	.	.	.
8r	.	8cJ)	8r	.
=146	=146	=146	=146	=146
!!linebreak:original
.	[4.G	.	.	.
!!linebreak:original
2.r	.	[4.b-	2.r	.
.	8GL]	.	.	.
.	.	8b-L]	.	.
.	8F	.	.	.
.	.	8a	.	.
.	8EJ	.	.	.
.	.	8gJ	.	.
=147	=147	=147	=147	=147
.	[4.B-	.	.	.
2.r	.	[2.e	([4.dd	.
.	8B-L]	.	.	.
.	.	.	8ddL]	.
.	8A	.	.	.
.	.	.	8cc	.
.	8GJ	.	.	.
.	.	.	8b-J)	.
=148	=148	=148	=148	=148
.	[4.d	.	.	.
2.C	.	2.e]	([4.b-	.
.	8dL]	.	.	.
.	.	.	8b-L]	.
.	8c	.	.	.
.	.	.	8a	.
.	8B-J	.	.	.
.	.	.	8gJ)	.
=149	=149	=149	=149	=149
.	4.A	.	.	.
2.FF	.	4.f	([4.a	.
.	4r	.	.	.
.	.	4r	8aL]	.
.	.	.	8g	.
.	8r	.	.	.
.	.	8r	8fJ	.
=150	=150	=150	=150	=150
.	[4.A	.	.	.
2.F	.	2.e-X	[4.cc	.
.	8AL]	.	.	.
.	.	.	8ccL]	.
.	8B-	.	.	.
.	.	.	8b-	.
.	8cJ	.	.	.
.	.	.	8aJ)	.
=151:|!	=151:|!	=151:|!	=151:|!	=151:|!
.	(4.G	.	.	.
(4.E	.	([2.c	(4.g	.
.	[4.F#X	.	.	.
[4.D	.	.	[4.a	.
=152	=152	=152	=152	=152
.	4.F#]	.	.	.
4.D]	.	4.c]	4.a]	.
.	[4.Fn	.	.	.
[4.D-X	.	[4.Bn	[4.bn	.
=153	=153	=153	=153	=153
.	4.F]	.	.	.
4.D-]	.	4.B]	4.b]	.
.	[4.E	.	.	.
[4.C)	.	[4.c)	[4.cc	.
=154	=154	=154	=154	=154
!	!	!	!	!
.	2.E])	.	.	.
4.C]	.	2.c]	2.cc])	.
4.BB-)	.	.	.	.
=155	=155	=155	=155	=155
.	(2.E-X	.	.	.
2.AA-X	.	(2.c	([4.cc	.
.	.	.	8ccL]	p
.	.	.	8b-	.
.	.	.	8a-XJ	.
=156	=156	=156	=156	=156
.	[4.c	.	.	.
[2.A-X	.	2.g-X)	[4.ee-X	.
.	8cL]	.	.	.
.	.	.	8ee-L]	.
.	8d-X	.	.	.
.	.	.	8dd-X	.
.	8e-XJ)	.	.	.
.	.	.	8ccJ)	.
=157	=157	=157	=157	=157
.	(4.d-X	.	.	.
2.A-_	.	(4.f	(4.ff	.
.	[4.f	.	.	.
.	.	[4.a-X	[4.aa-X	.
=158	=158	=158	=158	=158
.	4f]	.	.	.
4A-]	.	4a-]	4aa-]	.
.	8d-X	.	.	.
8A-X	.	8g	8ff	.
.	4.c)	.	.	.
4A-	.	4.a-X)	4.ee-X)	.
8r	.	.	.	.
=159	=159	=159	=159	=159
.	(4.B-	.	.	.
4.E-X	.	(4.a-X	(4.dd-X	.
.	[4.d-X	.	.	.
[4.E-	.	[4.g	[4.ff	.
=160	=160	=160	=160	=160
.	4d-]	.	.	.
4E-]	.	4g]	4ff]	.
.	8B-	.	.	.
(8E-X	.	8g	8dd-X	.
.	4.A-X)	.	.	.
4A-X)	.	4.a-X)	4.cc)	.
8r	.	.	.	.
=161	=161	=161	=161	=161
!!linebreak:original
.	4.d-X	.	.	.
!!linebreak:original
4.E-X	.	4.g	(4.b-	.
.	[4.d-	.	.	.
[4.E-	.	[4.g	[4.dd-X	.
=162	=162	=162	=162	=162
.	4d-]	.	.	.
4E-]	.	4g]	4dd-]	.
.	(8d-X	.	.	.
(8E-X	.	(8g	8b-	.
.	4c)	.	.	.
4AA-X)	.	4a-X)	4a-X)	.
.	8r	.	.	.
8r	.	8r	8r	.
=163	=163	=163	=163	=163
.	34%25r	.	.	.
!	!	!	!	!
[4.C	.	2.r	2.r	.
8CL]	.	.	.	.
8BB-	.	.	.	.
8AA-XJ	.	.	.	.
=164	=164	=164	=164	=164
.	[2.G-X	.	.	.
[4.E-X	.	2.r	2.r	.
8E-L]	.	.	.	.
8D-X	.	.	.	.
8CJ	.	.	.	.
=165	=165	=165	=165	=165
.	2.G-]	.	.	.
2.An	.	2.r	[4.e-X	.
.	.	.	8e-L]	.
.	.	.	8d-X	.
.	.	.	8cJ	.
=166	=166	=166	=166	=166
!	!	!	!	!
.	2.e-X	.	.	.
2.c	.	2.f#X 2.a	[4.ee-X	.
.	.	.	8ee-L]	sf
.	.	.	8dd-X	.
.	.	.	8ccJ	.
=167	=167	=167	=167	=167
!	!	!	!	!
.	8FL	.	.	.
8D-XL	.	8B-L	([4.f	.
.	8F	.	.	.
8D-	.	8B-	.	.
.	8FJ	.	.	.
8D-J	.	8B-J	.	.
.	8F	.	.	.
8D-	.	8B-	8fL]	.
.	8r	.	.	.
8r	.	8r	8a	.
.	8r	.	.	.
8r	.	8r	8b-J	.
=168	=168	=168	=168	=168
.	8FL	.	.	.
8E-XL	.	8cL	8dd-XL	.
.	8F	.	.	.
8E-	.	8c	8cc	.
.	8FJ	.	.	.
8E-J	.	8cJ	8b-J	.
.	8F	.	.	.
8E-	.	8c	8aL	.
.	8r	.	.	.
8r	.	8r	8g-X	.
.	8r	.	.	.
8r	.	8r	8fJ)	.
=169	=169	=169	=169	=169
!	!	!	!	!
.	(4.F	.	.	.
4.D-X	.	4.B-	(4.f	.
.	[4.G-X	.	.	.
!	!	!	!	!
[4.D-	.	[4.B-	[4.f-X	.
=170	=170	=170	=170	=170
!	!	!	!	!
.	4.G-]	.	.	.
4.D-]	.	4.B-]	4.f-]	.
.	4.Gn)	.	.	.
!	!	!	!	!
4.D-X	.	4.B-	4.e-X)	.
=171	=171	=171	=171	=171
.	8E-XL	.	.	.
8C-XL	.	8A-XL	([4.e-X	.
.	8E-	.	.	.
8C-	.	8A-	.	.
.	8E-J	.	.	.
8C-J	.	8A-J	.	.
.	8E-	.	.	.
8C-	.	8A-	8e-L]	.
.	8r	.	.	.
8r	.	8r	8g	.
.	8r	.	.	.
8r	.	8r	8a-XJ	.
=172	=172	=172	=172	=172
!	!	!	!	!
.	8E-XL	.	.	.
8D-XL	.	8B-L	8cc-XL	.
.	8E-	.	.	.
!	!	!	!	!
8D-	.	8B-	8b-	.
.	8E-J	.	.	.
8D-J	.	8B-J	8a-XJ	.
.	8E-	.	.	.
8D-	.	8B-	8gnL	.
.	8r	.	.	.
8r	.	8r	8fn	.
.	8r	.	.	.
8r	.	8r	8e-XJ)	.
=173	=173	=173	=173	=173
!!linebreak:original
!	!	!	!	!
.	(4.E-X	.	.	.
!!linebreak:original
!	!	!	!	!
4.C-X	.	4.A-X	(4.e-X	.
.	[4.En	.	.	.
[4.C-	.	[4.A-	[4.e--	.
=174	=174	=174	=174	=174
!	!	!	!	!
.	4.E]	.	.	.
!	!	!	!	!
4.C-]	.	4.A-]	4.e--]	.
.	4.F)	.	.	.
!	!	!	!	!
4.C-X	.	4.A-X	4.d-X)	.
=175	=175	=175	=175	=175
.	4.G-X	.	.	.
(4.BB--	.	(4.d-X	(4.d-X	.
.	[4.G-	.	.	.
[4.AA-X)	.	[4.c)	[4.e-X	.
=176	=176	=176	=176	=176
!	!	!	!	!
.	4.G-]	.	.	.
2.AA-]	.	4.c]	4e-]	.
.	.	.	8f-X	.
.	4.G-X	.	.	.
.	.	4.c	4g-X	.
.	.	.	8a-X)	.
=177	=177	=177	=177	=177
!	!LO:TX:b:i:t=dim.	!	!	!
.	(4.d-X	.	.	.
!LO:TX:b:i:t=dim.	!	!LO:TX:b:i:t=dim.	!LO:TX:b:i:t=dim.	!
(4.B--	.	[2.g-X	(4.dd-X	.
.	[4.c)	.	.	.
[4.A-X)	.	.	[4.ee-X	.
=178	=178	=178	=178	=178
.	2.c_	.	.	.
2.A-_	.	2.g-]	4ee-]	.
.	.	.	8ff	.
.	.	.	4gg-X	.
.	.	.	8aa-X)	.
=179	=179	=179	=179	=179
.	(4.c]	.	.	.
(4.A-]	.	[2.f	(4.cc	.
.	[4.Bn)	.	.	.
[4.Gn)	.	.	[4.ddn	.
=180	=180	=180	=180	=180
.	2.B]	.	.	.
2.G]	.	2.f]	4dd]	.
.	.	.	8ee-X	.
.	.	.	4ff	.
.	.	.	8ggn)	.
=181	=181	=181	=181	=181
.	(4.c	.	.	.
(4.A-X	.	4.f	(4.cc	.
.	[4.Bn)	.	.	.
[4.G)	.	[4.f	[4.dd	.
=182	=182	=182	=182	=182
.	2.B]	.	.	.
2.G]	.	4.f]	4dd]	.
.	.	.	8ee-X	.
.	.	4.f	4ff	.
.	.	.	8gg)	.
=183	=183	=183	=183	=183
.	34%25r	.	.	.
[4.E-X	.	2.r	2.r	.
8E-L]	.	.	.	.
8D'	.	.	.	.
8C'J	.	.	.	.
=184	=184	=184	=184	=184
.	[4.e-X	.	.	.
[4.e-X	.	2.r	2.r	.
.	8e-L]	.	.	.
8e-L]	.	.	.	.
.	8d'	.	.	.
8d'	.	.	.	.
.	8c'J	.	.	.
8c'J	.	.	.	.
=185	=185	=185	=185	=185
.	[2.ee-X	.	.	.
*clefG2	*	*	*	*
[2.ccc	.	[2.ff#X [2.aa	[4.eee-X	.
.	.	.	8eee-L]	sf
.	.	.	8ccc'	.
.	.	.	8aa'J	.
=186	=186	=186	=186	=186
.	8ee-]	.	.	.
8ccc]	.	8ff#] 8aa]	8ff#X'L	.
.	8r	.	.	.
8r	.	8r	8ee-X'	.
.	8r	.	.	.
8r	.	8r	8cc'J	.
.	4r	.	.	.
4r	.	4r	8a'L	.
.	.	.	8f#X'	.
.	8r	.	.	.
8r	.	8r	8e-X'J	.
=187	=187	=187	=187	=187
!!linebreak:original
.	4.d	.	.	.
!!linebreak:original
*clefF4	*	*	*	*
4.B-	.	[2.g	4.dd	.
.	[4.d-X	.	.	.
[4.A	.	.	[4.ee	.
=188	=188	=188	=188	=188
.	2.d-]	.	.	.
2.A]	.	2.g]	4ee]	.
.	.	.	8ff	.
.	.	.	4gg	.
.	.	.	8aa	.
=189	=189	=189	=189	=189
.	4.d	.	.	.
4.B-	.	4.g	4.dd	.
.	[4.d-X	.	.	.
[4.A	.	[4.g	[4.ee	.
=190	=190	=190	=190	=190
.	4.d-]	.	.	.
2.A]	.	4.g]	4ee]	.
.	.	.	8ff	.
.	4.a	.	.	.
.	.	4.g	4gg	.
.	.	.	8aa	.
=191	=191	=191	=191	=191
.	34%25r	.	.	.
[4.F	.	2.r	2.r	.
8FL]	.	.	.	.
8E-X'	.	.	.	.
8D'J	.	.	.	.
=192	=192	=192	=192	=192
.	[4.f	.	.	.
[4.f	.	2.r	2.r	.
.	8fL]	.	.	.
.	8e'	.	.	.
8fL]	.	.	.	.
.	8d'J	.	.	.
8e'	.	.	.	.
8d'J	.	.	.	.
=193	=193	=193	=193	=193
.	[2.ff	.	.	.
*clefG2	*	*	*	*
[2.ddd	.	[2.gg#X [2.bbn	[4.fff	.
.	.	.	8fff'L]	sf
.	.	.	8ddd	.
.	.	.	8bbn'J	sf
=194	=194	=194	=194	=194
.	8ff]	.	.	.
.	8r	.	.	.
8ddd]	.	8gg#] 8bb]	8gg#X'L	.
.	8r	.	.	.
8r	.	8r	8ff'	.
.	4r	.	.	.
8r	.	8r	8dd'J	.
4r	.	4r	8bn'L	.
.	8r	.	.	.
.	.	.	8g#X'	.
8r	.	8r	8f'J	.
=195	=195	=195	=195	=195
.	4.e	.	.	.
*clefF4	*	*	*	*
4.c	.	[2.a	4.ee	.
.	[4.e-X	.	.	.
[4.Bn	.	.	[4.ff#X	.
=196	=196	=196	=196	=196
.	2.e-]	.	.	.
2.B]	.	2.a]	4ff#]	.
.	.	.	8gg	.
.	.	.	4aa	.
.	.	.	8bbn	]
=197	=197	=197	=197	=197
.	4.e	.	.	.
4.c	.	4.a	4.ee	.
.	[4.e-X	.	.	.
[4.Bn	.	[4.a	[4.ff#X	.
=198	=198	=198	=198	=198
.	4.e-]	.	.	.
4.B]	.	4.a]	4ff#]	.
.	4.bn	.	.	.
.	.	.	8gg	.
4.Bn	.	4.a	4aa	.
.	.	.	8bbn	.
=199	=199	=199	=199	=199
.	[4.e	.	.	.
8GGL	.	8eL 8bn 8ee	8GL 8e 8bn 8ee	.
8r	.	8r	8r	.
!	!LO:TX:b:i:t=sempre	!	!	!
.	8eL]	.	.	.
!LO:TX:b:i:t=sempre	!	!LO:TX:b:i:t=sempre	!LO:TX:b:i:t=sempre	!
8GJ	.	8bJ	8eeJ	.
.	8g'	.	.	.
8G	.	8b	8ee	.
.	8a'J	.	.	.
8r	.	8r	8r	.
8r	.	8r	8r	.
=200	=200	=200	=200	=200
!!linebreak:original
.	8bn'L	.	.	.
.	8a'	.	.	.
!!linebreak:original
2.r	.	2.r	4r	.
.	8g'J	.	.	.
.	8f#X'L	.	.	.
.	.	.	(8ee	.
.	8b'	.	.	.
.	.	.	8dd#XL)	.
.	8a'J	.	.	.
.	.	.	8r	.
.	.	.	(8ff#XJ	.
=201	=201	=201	=201	=201
.	8g'L	.	.	.
.	8bn'	.	.	.
2.r	.	2.r	8eeL)	.
.	8e'J	.	.	.
.	.	.	8r	.
.	8d#X'L	.	.	.
.	.	.	(8ggJ	.
.	8f#X'	.	.	.
.	.	.	8ff#XL)	.
.	8Bn'J	.	.	.
.	.	.	8r	.
.	.	.	(8aaJ	.
=202	=202	=202	=202	=202
.	8e'L	.	.	.
.	8g'	.	.	.
2.r	.	[4.bn	8ggL)	.
.	8e'J	.	.	.
.	.	.	8r	.
.	8d'L	.	.	.
.	.	.	(8bbnJ	.
.	8e'	.	.	.
.	.	8bL]	8eeL)	.
.	8d'J	.	.	.
.	.	8dd#X'	8r	.
.	.	8ee'J	8ggJ	.
=203	=203	=203	=203	=203
.	8c#XL	.	.	.
.	8r	.	.	.
8FF#XL	.	8gg'L	8eL 8a#X	.
.	8c#J	.	.	.
8r	.	8ff#X'	8r	.
.	8c#	.	.	.
8F#XJ	.	8ee'J	8eJ 8a#	.
.	8r	.	.	.
8F#	.	8dd'L	8e 8a#	.
.	8r	.	.	.
8r	.	8cc#X'	8r	.
8r	.	8bn'J	8r	.
=204	=204	=204	=204	=204
.	[4.F#X	.	.	.
2.r	.	2.a#X	8g'L	.
.	.	.	8f#X'	.
.	8F#L]	.	.	.
.	.	.	8e'J	.
.	8A#X	.	.	.
.	.	.	8d'L	.
.	8Bn'J	.	.	.
.	.	.	8c#X'	.
.	.	.	8Bn'J	.
=205	=205	=205	=205	=205
!	!	!	!	!
.	8d'L	.	.	.
.	8c#X'	.	.	.
[4.FF#X	.	2.r	2.A#X	.
.	8Bn'J	.	.	.
.	8A#X'L	.	.	.
.	8G'	.	.	.
8FF#L]	.	.	.	.
.	8F#X'J	.	.	.
8AA#X'	.	.	.	.
8BBn'J	.	.	.	.
=206	=206	=206	=206	=206
.	8f#XL	.	.	.
.	8r	.	.	.
8D'L	.	8a#XL	8ff#XL	.
.	8f#J	.	.	.
8C#X'	.	8r	8r	.
.	8f#	.	.	.
8BBn'J	.	8a#J	8ff#J	.
.	8r	.	.	.
8AA#X'L	.	8a#	8ff#	.
.	8r	.	.	.
8GG'	.	8r	8r	.
8FF#X'J	.	8r	8r	.
=207	=207	=207	=207	=207
.	[4.Bn	.	.	.
8DDL	.	8bnL 8ff#X	8dL 8dd 8bbn	.
8r	.	8r	8r	.
.	8BL]	.	.	.
8DJ	.	8ff#J	8bbJ	.
.	8d'	.	.	.
8D	.	8ff#	8bb	.
.	8e'J	.	.	.
8r	.	8r	8r	.
8r	.	8r	8r	.
=208	=208	=208	=208	=208
.	8f#X'L	.	.	.
.	8e'	.	.	.
2.r	.	2.r	4r	.
.	8d'J	.	.	.
.	8c#X'L	.	.	.
.	.	.	(8bn	.
.	8f#'	.	.	.
.	.	.	8a#XL)	.
.	8e'J	.	.	.
.	.	.	8r	.
.	.	.	(8cc#XJ	.
=209	=209	=209	=209	=209
!!linebreak:original
.	8d'L	.	.	.
.	8f#X'	.	.	.
!!linebreak:original
2.r	.	2.r	8bnL)	.
.	8Bn'J	.	.	.
.	.	.	8r	.
.	8A#X'L	.	.	.
.	.	.	(8ddJ	.
.	8c#X'	.	.	.
.	.	.	8cc#XL)	.
.	8F#X'J	.	.	.
.	.	.	8r	.
.	.	.	(8eeJ	.
=210	=210	=210	=210	=210
.	8Bn'L	.	.	.
.	8d'	.	.	.
2.r	.	[4.f#X	8ddL)	.
.	8B'J	.	.	.
.	.	.	8r	.
.	8A'L	.	.	.
.	.	.	(8ff#XJ	.
.	8B'	.	.	.
.	.	8f#L]	8bnL)	.
.	8A'J	.	.	.
.	.	8a#X'	8r	.
.	.	8bn'J	8ddJ	.
=211	=211	=211	=211	=211
.	4G#X	.	.	.
8CC#XL	.	8dd'L	8BnL 8e#X	.
.	8G#	.	.	.
8r	.	8cc#X'	8r	.
.	8G#	.	.	.
8C#XJ	.	8bn'J	8BJ 8e#	.
.	8r	.	.	.
8C#	.	8a'L	8B 8e#	.
.	8r	.	.	.
8r	.	8g#X'	8r	.
8r	.	8f#X'J	8r	.
=212	=212	=212	=212	=212
.	[4.c#X	.	.	.
2.r	.	2.e#X	8dd'L	.
.	.	.	8cc#X'	.
.	8c#L]	.	.	.
.	.	.	8bn'J	.
.	8e#X'	.	.	.
.	.	.	8a'L	.
.	8f#X'J	.	.	.
.	.	.	8g#X'	.
.	.	.	8f#X'J	.
=213	=213	=213	=213	=213
.	8a'L	.	.	.
.	8g#X'	.	.	.
[4.C#X	.	2.r	2.e#X	.
.	8f#X'J	.	.	.
.	8e#X'L	.	.	.
.	8e-X'	.	.	.
8C##L	.	.	.	.
.	8c#X'J	.	.	.
8E#X'	.	.	.	.
8F#X'J	.	.	.	.
=214	=214	=214	=214	=214
.	4c#X	.	.	.
8A'L	.	8e#XL	8cc#XL	.
.	8c#	.	.	.
8G#X'	.	8r	8r	.
.	8c#	.	.	.
8F#X'J	.	8e#J	8cc#J	.
.	8r	.	.	.
8E#X'L	.	8e#	8cc#	.
.	8r	.	.	.
8D'	.	8r	8r	.
8C#X'J	.	8r	8r	.
=215	=215	=215	=215	=215
.	4.c#X	.	.	.
(2.A	.	(2.f#X	([4.cc#X	.
.	[4.c#	.	.	.
.	.	.	8cc#L]	p
.	.	.	8ee#X	.
.	.	.	8ff#XJ	.
=216	=216	=216	=216	=216
.	4.c#]	.	.	.
2.Bn	.	2.g#X)	8aaL	.
.	.	.	8gg#X	.
.	[4.c#X	.	.	.
.	.	.	8ff#XJ	.
.	.	.	8ee#XL	.
.	.	.	8dd	.
.	.	.	8cc#XJ)	.
=217	=217	=217	=217	=217
.	(4.c#]	.	.	.
[2.A)	.	4.f#X	(4.cc#X	.
.	4.d	.	.	.
.	.	[4.f#	[4.ccn	.
=218	=218	=218	=218	=218
!!linebreak:original
.	4.d#X	.	.	.
!!linebreak:original
8AL]	.	4.f#]	4.cc]	.
(8BBn	.	.	.	.
.	4.A)	.	.	.
8C#XJ	.	.	.	.
8D#XL	.	4.f#X	4.bn)	.
8E	.	.	.	.
8F#XJ)	.	.	.	.
=219	=219	=219	=219	=219
.	4r	.	.	.
2.G	.	2.e	([4.bn	.
.	8r	.	.	.
.	[4.Bn	.	.	.
.	.	.	8bL]	.
.	.	.	8dd#X	.
.	.	.	8eeJ	.
=220	=220	=220	=220	=220
.	4.B]	.	.	.
2.A	.	2.f#X	8ggL	.
.	.	.	8ff#X	.
.	[4.Bn	.	.	.
.	.	.	8eeJ	.
.	.	.	8dd#XL	.
.	.	.	8cc	.
.	.	.	8bnJ)	.
=221	=221	=221	=221	=221
.	(4.B]	.	.	.
[2.G	.	4.e	(4.bn	.
.	4.c	.	.	.
.	.	[4.e	[4.b-X	.
=222	=222	=222	=222	=222
.	4.c#X	.	.	.
8GL]	.	4.e]	4.b-]	.
(8AA	.	.	.	.
.	4.G)	.	.	.
8BBnJ	.	.	.	.
8C#XL	.	4.e	4.a)	.
8D	.	.	.	.
8EJ)	.	.	.	.
=223	=223	=223	=223	=223
.	(4.A	.	.	.
(4.F	.	4.d	(4.a	.
.	[4.G#X)	.	.	.
[4.E)	.	[4.d	[4.bn	.
=224	=224	=224	=224	=224
.	4.G#]	.	.	.
4.E]	.	4.d]	4b]	.
.	4.G#X	.	.	.
.	.	.	8cc	.
4.E	.	4.d	4dd	.
.	.	.	8ee)	]
=225	=225	=225	=225	=225
.	(4.A	.	.	.
(4.FF	.	4.d	(4.a	.
.	[4.G#X	.	.	.
[4.EE)	.	[4.d	[4.bn	.
=226	=226	=226	=226	=226
!LO:TX:b:i:t=dim.	!LO:TX:b:i:t=dim.	!LO:TX:b:i:t=dim.	!LO:TX:b:i:t=dim.	!
.	4.G#]	.	.	.
4.EE]	.	4.d]	4b]	.
.	4.e)	.	.	.
.	.	.	8cc	.
4.EE	.	4.d	4dd	.
.	.	.	8ee)	.
=227	=227	=227	=227	=227
.	(4.A-X	.	.	.
!	!	!	!LO:TX:a:i:t=ritard.	!
(4.FF-X	.	4.d-X	(4.a-X	.
.	[4.G)	.	.	.
[4.EE-X)	.	[4.d-	[4.b-	.
=228	=228	=228	=228	=228
.	4.G]	.	.	.
4.EE-]	.	4.d-]	4b-]	.
.	4.G	.	.	.
.	.	.	8cc-X	.
4.EE-X	.	4.d-X	4dd-X	.
.	.	.	8ee-X)	.
*	*clefG2	*	*	*
=229	=229	=229	=229	=229
.	[4.a-X	.	.	.
!	!	!	!LO:TX:a:t=a tempo	!
8C-XL	.	8e-XL	8e-XL 8cc-X 8aa-X	.
8r	.	8r	8r	.
.	8a-L]	.	.	.
8C-J	.	8ee-XJ	8aa-J	.
.	8cc-X	.	.	.
8C-	.	8ee-	8aa-	.
.	8dd-XJ	.	.	.
!	!	!	!	!
8r	.	8r	8r	.
8r	.	8r	8r	.
=230	=230	=230	=230	=230
!!linebreak:original
.	8ee-X'L	.	.	.
.	8dd-X'	.	.	.
!!linebreak:original
2.r	.	2.r	4r	.
.	8cc'J	.	.	.
.	8b-'L	.	.	.
.	.	.	(8aa-X	.
.	8ee-'	.	.	.
.	.	.	8ggL)	.
.	8dd-'J	.	.	.
.	.	.	8r	.
.	.	.	(8bb-J	.
=231	=231	=231	=231	=231
.	8cc-X'L	.	.	.
.	8ee-X'	.	.	.
2.r	.	2.r	8aa-XL)	.
.	8a-X'J	.	.	.
.	.	.	8r	.
.	8g'L	.	.	.
.	.	.	(8ccc-XJ	.
.	8b-'	.	.	.
.	.	.	8bb-L)	.
.	8e-X'J	.	.	.
.	.	.	8r	.
.	.	.	(8ddd-XJ	.
=232	=232	=232	=232	=232
.	8a-X'L	.	.	.
.	8cc'	.	.	.
2.r	.	[4.ee-X	8ccc-XL)	.
.	8a-'J	.	.	.
.	.	.	8r	.
.	8g-X'L	.	.	.
.	.	.	(8eee-XJ	.
.	8a-'	.	.	.
.	.	8ee-L]	8aa-XL)	.
.	8g-'J	.	.	.
.	.	8gg'	8r	.
.	.	8aa-X'J	8ccc-J	.
=233	=233	=233	=233	=233
.	8fL	.	.	.
.	8r	.	.	.
8BB-L	.	8ccc-X'L	4a-X 4dd	.
.	8fJ	.	.	.
8r	.	8bb-'	.	.
.	8f	.	.	.
8BB-J	.	8aa-X'J	8a- 8dd	.
.	8r	.	.	.
8BB-	.	8gg-X'L	8a- 8dd	.
.	8r	.	.	.
8r	.	8ff'	8r	.
8r	.	8ee-X'J	8r	.
*	*clefC3	*	*	*
=234	=234	=234	=234	=234
.	[4.B-	.	.	.
!	!	!	!	!
2.r	.	2.ddn	8cc-X'L	.
.	.	.	8b-'	.
.	8B-L]	.	.	.
.	.	.	8a-X'J	.
.	8d'	.	.	.
.	.	.	8g-X'L	.
.	8e-X'J	.	.	.
.	.	.	8f'	.
.	.	.	8e-X'J	.
=235	=235	=235	=235	=235
.	8g-X'L	.	.	.
.	8f'	.	.	.
[4.BB-	.	2.r	8dL	.
.	8e-X'J	.	.	.
.	.	.	8r	.
.	8d'L	.	.	.
.	.	.	8dJ	.
.	8c'	.	.	.
8BB-L]	.	.	8d	.
.	8B-'J	.	.	.
8D	.	.	8r	.
8E-X'J	.	.	8r	.
=236	=236	=236	=236	=236
.	8b-L	.	.	.
.	8r	.	.	.
8G-X'L	.	8B-L	4d 4b-	.
.	8b-J	.	.	.
8F'	.	8r	.	.
.	8b-	.	.	.
8E-X'J	.	8B-J	8d 8b-	.
.	8r	.	.	.
8D'L	.	8B-	8d 8b-	.
.	8r	.	.	.
8BBn'	.	8r	8r	.
8BB-X'J	.	8r	8r	.
=237	=237	=237	=237	=237
.	[4.e-X	.	.	.
8GG-XL	.	8b-L	8g-XL 8ee-X	.
8r	.	8r	8r	.
.	8e-L]	.	.	.
8G-XJ	.	8b-J	8g-J 8ee-	.
.	8g-X'	.	.	.
8G-	.	8b-	8g- 8ee-	.
.	8a-X'J	.	.	.
8r	.	8r	8r	.
8r	.	8r	8r	.
=238	=238	=238	=238	=238
.	8b-'L	.	.	.
.	8a-X'	.	.	.
2.r	.	2.r	4r	.
.	8g-X'J	.	.	.
.	8f'L	.	.	.
.	.	.	(8ee-X	.
.	8b-'	.	.	.
.	.	.	8ddL)	.
.	8a-'J	.	.	.
.	.	.	8r	.
.	.	.	(8ffJ	.
=239	=239	=239	=239	=239
!!linebreak:original
.	8g-X'L	.	.	.
.	8b-'	.	.	.
!!linebreak:original
2.r	.	2.r	8ee-XL)	.
.	8e-X'J	.	.	.
.	.	.	8r	.
.	8d'L	.	.	.
.	.	.	(8gg-XJ	.
.	8f'	.	.	.
.	.	.	8ffL)	.
.	8B-'J	.	.	.
.	.	.	8r	.
.	.	.	(8aa-XJ	.
=240	=240	=240	=240	=240
.	8e-X'L	.	.	.
.	8g-X'	.	.	.
2.r	.	[4.b-	8gg-XL)	.
.	8e-'J	.	.	.
.	.	.	8r	.
.	8d-X'L	.	.	.
.	.	.	(8bb-J	.
.	8e-'	.	.	.
.	.	8b-L]	8ee-XL)	.
.	8d-'J	.	.	.
.	.	8dd'	8r	.
.	.	8ee-X'J	8gg-J	.
=241	=241	=241	=241	=241
.	8cL	.	.	.
.	8r	.	.	.
8FFL	.	8gg-X'L	8e-XL 8a	.
.	8cJ	.	.	.
8r	.	8ff'	8r	.
.	8c	.	.	.
8FJ	.	8ee-X'J	8e-J 8a	.
.	8r	.	.	.
8F	.	8dd-X'L	8e- 8a	.
.	8r	.	.	.
8r	.	8cc'	8r	.
8r	.	8b-'J	8r	.
=242	=242	=242	=242	=242
.	[4.F	.	.	.
2.r	.	2.a	8g-X'L	.
.	.	.	8f'	.
.	8FL]	.	.	.
.	.	.	8e-X'J	.
.	8A'	.	.	.
.	.	.	8d-X'L	.
.	8B-'J	.	.	.
.	.	.	8c'	.
.	.	.	8B-'J	.
=243	=243	=243	=243	=243
.	8d-X'L	.	.	.
.	8c'	.	.	.
[4.FF	.	2.r	8AL	.
.	8B-'J	.	.	.
.	.	.	8r	.
.	8A'L	.	.	.
.	.	.	8AJ	.
.	8G-X'	.	.	.
8FFL]	.	.	8A	.
.	8F'J	.	.	.
8AA'	.	.	8r	.
8BB-'J	.	.	8r	.
=244	=244	=244	=244	=244
.	8fL	.	.	.
.	8r	.	.	.
8D-X'L	.	8ffL	8AL 8f	.
.	8fJ	.	.	.
8C'	.	8r	8r	.
.	8f	.	.	.
8BB-'J	.	8ffJ	8AJ 8f	.
.	8r	.	.	.
8AA'L	.	8ff	8A 8f	.
.	8r	.	.	.
8GG-X'	.	8r	8r	.
8FF'J	.	8r	8r	.
=245	=245	=245	=245	=245
.	(4.F	.	.	.
(4.DD-X	.	4r	(4.ff	.
.	[4.E)	.	.	.
.	.	8r	.	.
[4.CC)	.	[4.B- [4.b-	[4.gg	.
=246	=246	=246	=246	=246
!	!	!	!	!
.	2.E]	.	.	.
2.CC]	.	2.B-] 2.b-]	4gg]	.
.	.	.	8aa-X	.
.	.	.	4bb-	.
.	.	.	8ccc)	.
=247	=247	=247	=247	=247
.	(4.F	.	.	.
(4.DD-X	.	4.B- 4.b-	(4.ff	.
.	[4.E)	.	.	.
[4.CC)	.	[4.B- [4.b-	[4.gg	.
=248	=248	=248	=248	=248
!	!	!	!	!
.	2.E]	.	.	.
2.CC]	.	2.B-] 2.b-]	4gg]	.
.	.	.	8aa-X	.
.	.	.	4bb-	.
.	.	.	8ccc)	.
=249	=249	=249	=249	=249
!!linebreak:original
.	4r	.	.	.
!!linebreak:original
2.r	.	2.r	(4gg	.
.	8r	.	.	.
.	(4g	.	.	.
.	.	.	8aa-X	.
.	.	.	4bb-	.
.	8a-X	.	.	.
.	.	.	8ccc)	.
=250	=250	=250	=250	=250
.	4b-	.	.	.
2.r	.	2.r	(4gg	.
.	8cc)	.	.	.
.	(4g	.	.	.
.	.	.	8aa-X	.
.	.	.	4bb-	.
.	8a-X	.	.	.
.	.	.	8ccc)	.
=251	=251	=251	=251	=251
.	4b-	.	.	.
2.r	.	4r	(4bb-	.
.	8cc)	.	.	.
.	(4b-	.	.	.
.	.	8r	8aa-X	.
.	.	(4ee	4gg	.
.	8g	.	.	.
.	.	8cc	8ee	.
=252	=252	=252	=252	=252
.	4e	.	.	.
2.r	.	4b-	4cc	.
.	8c	.	.	.
.	4B-	.	.	.
.	.	8g	8b-	.
.	.	4e	4g	.
.	8G)	.	.	.
.	.	8c)	8e)	.
=253	=253	=253	=253	=253
.	(2.F	.	.	.
(2.FF 2.C	.	(2.c	([4.an	.
.	.	.	8aL]	.
.	.	.	8g	.
.	.	.	8fJ	.
=254	=254	=254	=254	=254
.	[4.A	.	.	.
2.F)	.	2.e-X)	[4.cc	.
.	8AL]	.	.	.
.	8B-	.	.	.
.	.	.	8ccL]	.
.	8cJ)	.	.	.
.	.	.	8b-	.
.	.	.	8aJ)	.
=255	=255	=255	=255	=255
.	(4.B-	.	.	.
(4.BB-	.	4.d 4.b-	(4.dd	.
.	[4.d	.	.	.
[4.B-	.	[4.f [4.b-	[4.ff	.
=256	=256	=256	=256	=256
.	4d]	.	.	.
4B-]	.	4f] 4b-]	4ff]	.
.	8d	.	.	.
.	4.c)	.	.	.
8B-	.	8f	8dd	.
4.A)	.	4.f	4.cc)	.
=257	=257	=257	=257	=257
.	(4.G	.	.	.
4.C	.	4.en	(4.b-	.
.	[4.B-^	.	.	.
[4.C^	.	[4.e^	[4.dd^	.
=258	=258	=258	=258	=258
.	4B-]	.	.	.
(4.C]	.	4e]	4dd]	.
.	8G	.	.	.
.	4.F)	.	.	.
.	.	(8e	8b-	.
4.F)	.	4.f)	4.a)	.
=259	=259	=259	=259	=259
!	!	!	!	!
.	4.B-	.	.	.
4.C	.	4.e	(4.g	.
.	[4.B-^	.	.	.
[4.C^	.	[4.e^	[4.b-^	.
=260	=260	=260	=260	=260
.	4B-]	.	.	.
4C]	.	4e]	4b-]	.
.	(8B-	.	.	.
.	4.A)	.	.	.
(8C	.	(8e	8g	.
4.FF)	.	4.f)	4.f)	.
=261	=261	=261	=261	=261
.	34%25r	.	.	.
2.r	.	2.r	([4.a	.
!	!	!	!	!LO:DY:a
.	.	.	8aL]	sf
.	.	.	8g	.
.	.	.	8fJ	.
=262	=262	=262	=262	=262
.	([4.A	.	.	.
(2.F	.	(2.e-X	[4.cc	.
.	8AL]	.	.	.
.	8G#X	.	.	.
.	.	.	8ccL]	.
.	8AJ)	.	.	.
.	.	.	8bn	.
.	.	.	8aJ)	.
=263	=263	=263	=263	=263
!!linebreak:original
.	(4.Bn	.	.	.
!!linebreak:original
4.E)	.	4.d) 4.g#X	(4.dd	.
.	[4.d^	.	.	.
[4.E^	.	[4.g#^	[4.ff^	.
=264	=264	=264	=264	=264
.	4d]	.	.	.
4E]	.	4g#]	4ff]	.
.	8Bn	.	.	.
.	4.A)	.	.	.
(8E	.	(8g#X	8dd	.
4.A)	.	4.a)	4cc)	.
.	.	.	8r	.
=265	=265	=265	=265	=265
.	(4.c	.	.	.
2.r	.	4r	(4.cc	.
.	[4.a^	.	.	.
.	.	8r	.	.
.	.	[4.cc^	[4.aa^	.
=266	=266	=266	=266	=266
.	4a]	.	.	.
(4.F	.	4.cc]	4aa]	.
.	8a	.	.	.
.	4.g)	.	.	.
.	.	.	8ff	.
[4.G)	.	4.cc	4.ee)	.
=267	=267	=267	=267	=267
.	(4.f	.	.	.
2.G]	.	4.bn	(4.dd	.
.	[4.d^	.	.	.
.	.	[4.b^	[4.ff^	.
=268	=268	=268	=268	=268
.	4d]	.	.	.
4G	.	4b]	4ff]	.
.	8f	.	.	.
.	4e)	.	.	.
(8G	.	(8bn	8dd	.
4C)	.	4cc)	4cc)	.
.	8r	.	.	.
8r	.	8r	8r	.
=269	=269	=269	=269	=269
.	(8CL	.	.	.
.	8G	.	.	.
!LO:TX:a:t=pizz.	!	!	!	!
8C	.	4.e	([4.cc	.
.	8AJ	.	.	.
8r	.	.	.	.
.	8B-X)	.	.	.
8r	.	.	.	.
.	8r	.	.	.
4r	.	4r	8ccL]	.
.	8r	.	.	.
.	.	.	8ee	.
8r	.	8r	8ffJ	.
=270	=270	=270	=270	=270
.	34%25r	.	.	.
2.r	.	2.r	8aaL	.
.	.	.	8gg	.
.	.	.	8ffJ	.
.	.	.	8eeL	.
.	.	.	8dd	.
.	.	.	8ccJ)	.
=271	=271	=271	=271	=271
.	(4.A	.	.	.
4.C	.	(4.f#X	([4.dd	.
.	4.B-	.	.	.
!LO:TX:a:t=arco	!	!	!	!
[4.C	.	4.g	8ddL]	.
.	.	.	8ee	.
.	.	.	8ddJ	.
=272	=272	=272	=272	=272
.	4.E	.	.	.
4.C]	.	4.b-	[4.cc	.
.	4.F)	.	.	.
[4.C	.	4.a)	8ccL]	.
.	.	.	8dd	.
.	.	.	[8ccJ)	.
=273	=273	=273	=273	=273
.	(4.D	.	.	.
4.C]	.	(4.f	(4cc]	.
.	4.E	.	.	.
.	.	.	[8bn	.
[4.C	.	4.g	4b]	.
.	.	.	[8b-X	.
=274	=274	=274	=274	=274
.	4.F	.	.	.
4.C]	.	4.c	4b-]	.
.	4.D	.	.	.
.	.	.	8a	.
4.C	.	4.Bn)	4g	.
.	.	.	8f)	.
=275	=275	=275	=275	=275
.	2.C)	.	.	.
([4.C	.	(4.c 4.f	2.cc	.
8CL]	.	4e)	.	.
8E	.	.	.	.
8FJ)	.	8r	.	.
=276	=276	=276	=276	=276
!!linebreak:original
.	34%25r	.	.	.
!!linebreak:original
(8AL	.	2.r	2.r	.
8G	.	.	.	.
8FJ	.	.	.	.
8EL	.	.	.	.
8D	.	.	.	.
8CJ)	.	.	.	.
=277	=277	=277	=277	=277
.	[2.F	.	.	.
(4.AA	.	(4.c	([4.f	.
[4.BB-)	.	[4.d-X)	4f]	.
.	.	.	8g-X	<
=278	=278	=278	=278	=278
.	4.F]	.	.	.
4.BB-]	.	4.d-]	4dd-X	.
.	4r	.	.	.
.	.	.	8b-	[
4r	.	4r	4g-X	.
.	8r	.	.	.
8r	.	8r	8gn)	.
=279	=279	=279	=279	=279
.	[2.F	.	.	.
(4.BBn	.	(4.d	([4.g	.
!LO:TX:b:i:t=cresc.	!	!	!	!
[4.C)	.	[4.e-X)	4g]	.
!	!LO:TX:b:i:t=cresc.	!	!	!
!	!LO:TX:a:i:t=cresc.	!	!	!
.	.	.	8a-X	.
=280	=280	=280	=280	=280
.	4.F]	.	.	.
!	!	!	!LO:TX:b:i:t=cresc.	!
4.C]	.	4.e-]	4ee-X	.
.	4r	.	.	.
.	.	.	8cc	.
4r	.	4r	4a-X	.
.	8r	.	.	.
8r	.	8r	8an)	.
=281	=281	=281	=281	=281
.	[2.F	.	.	.
(4.C#X	.	(4.e	([4.a	.
[4.D)	.	[4.f)	4a]	.
.	.	.	8b-	.
=282	=282	=282	=282	=282
.	4.F]	.	.	.
4.D]	.	4.f]	4ff	.
.	4r	.	.	.
.	.	.	8dd	.
4r	.	4r	4b-	.
.	(8Bn	.	.	.
8r	.	8r	8bn)	.
=283	=283	=283	=283	=283
.	4f	.	.	.
2.r	.	2.r	(4ff	.
.	8d	.	.	.
.	4Bn	.	.	.
.	.	.	8dd	sf
.	.	.	4bn	.
.	8c)	.	.	.
.	.	.	8cc)	.
=284	=284	=284	=284	=284
.	2.c	.	.	.
2.E	.	([4.g [4.b-X	([4.cc	.
.	.	4g] 4b-]	8ccL]	.
.	.	.	8bn	.
.	.	8c)	8b-XJ)	.
=285	=285	=285	=285	=285
.	([4.c	.	.	.
2.F	.	(2.c	([4.a	.
.	8cL]	.	.	.
.	8B-	.	.	.
.	.	.	8aL]	p
.	8AJ)	.	.	.
.	.	.	8g	.
.	.	.	8fJ)	.
=286	=286	=286	=286	=286
.	2.e-X	.	.	.
!	!	!	!LO:TX:b:i:t=cresc.	!
2.FF	.	2.g-X)	([4.cc	.
.	.	.	8ccL]	.
.	.	.	8b-	.
.	.	.	8aJ)	.
=287	=287	=287	=287	=287
.	4.d	.	.	.
4.BB-	.	4.f	(4.dd	.
.	[4.d^	.	.	.
[4.B-^	.	[4.f^ [4.b-	[4.ff^	.
=288	=288	=288	=288	=288
.	4d]	.	.	.
4B-]	.	4f] 4b-]	4ff]	.
.	(8B-	.	.	.
.	4.A)	.	.	.
(8BB-	.	(8f	8dd	.
4.D)	.	4.f#X)	4.cc)	.
=289	=289	=289	=289	=289
!!linebreak:original
.	(4.G	.	.	.
!!linebreak:original
4.GG	.	4.d	(4.b-	.
.	[4.B-^	.	.	.
[4.G^	.	[4.d^ [4.g	[4.dd^	.
=290	=290	=290	=290	=290
.	4B-]	.	.	.
4G]	.	4d] 4g]	4dd]	.
.	8G	.	.	.
.	4.E)	.	.	.
(8GG	.	(8d	8b-	.
4.AA)	.	4.c#X)	4.a)	.
=291	=291	=291	=291	=291
.	(4.D	.	.	.
(4.D	.	4.d	(4.f	.
.	[4.G^)	.	.	.
[4.GG^	.	([4.d^	[4.b-^	.
=292	=292	=292	=292	=292
.	4G]	.	.	.
4GG]	.	4d]	4b-]	.
.	(8G	.	.	.
.	4.A)	.	.	.
8C	.	[8e	8g	.
4.AA)	.	4.e])	4.cc)	.
=293	=293	=293	=293	=293
.	(4.A	.	.	.
(4.D	.	4.d	(4.f	.
.	[4.G^)	.	.	.
[4.GG^)	.	[4.d^	[4.b-^	.
=294	=294	=294	=294	=294
.	4G]	.	.	.
4GG]	.	4d]	4b-]	.
.	(8B-	.	.	.
.	4.A)	.	.	.
(8C	.	(8e	8g	.
4.FF)	.	4.f)	4.f)	.
=295	=295	=295	=295	=295
.	(4.F	.	.	.
!	!	!	!	!
2.r	.	2.r	2.r	.
.	[4.B-^	.	.	.
=296	=296	=296	=296	=296
!	!LO:TX:b:i:t=cresc.	!	!	!
.	4B-]	.	.	.
2.r	.	2.r	2.r	.
.	8G	.	.	.
.	4.c)	.	.	.
=297	=297	=297	=297	=297
.	(4.F	.	.	.
2.r	.	2.r	2.r	.
.	[4.B-^	.	.	.
=298	=298	=298	=298	=298
.	4B-]	.	.	.
2.r	.	2.r	2.r	.
.	8G	.	.	.
.	4F	.	.	.
.	8G)	.	.	.
=299	=299	=299	=299	=299
.	(4F	.	.	.
(4.c	.	2.r	2.r	.
.	8E)	.	.	.
.	4.D	.	.	.
[4.f^	.	.	.	.
=300	=300	=300	=300	=300
!LO:TX:b:i:t=cresc.	!	!	!	!
.	([4.G^	.	.	.
4f]	.	2.r	2.r	.
.	4G]	.	.	.
8d	.	.	.	.
4.g)	.	.	.	.
.	8F	.	.	.
=301	=301	=301	=301	=301
.	4.E	.	.	.
(4.c	.	2.r	2.r	.
.	4.D)	.	.	.
[4.f^	.	.	.	.
=302	=302	=302	=302	=302
.	4G^	.	.	.
4f]	.	2.r	2.r	.
.	8F	.	.	.
.	4E	.	.	.
[8d	.	.	.	.
4d]	.	.	.	.
.	8B-	.	.	.
8c)	.	.	.	.
=303	=303	=303	=303	=303
.	(4.A	.	.	.
(4.c	.	(4.f	2.r	.
.	[4.d^)	.	.	.
!	!	!LO:TX:b:i:t=cresc.	!	!
4.G	.	[4.b-^	.	.
=304	=304	=304	=304	=304
!!linebreak:original
.	4d]	.	.	.
!!linebreak:original
[4.c^	.	4b-]	2.r	.
.	[8e	.	.	.
.	4.e]	.	.	.
.	.	8g	.	.
4c]	.	4.cc)	.	.
8B-	.	.	.	.
=305	=305	=305	=305	=305
.	(4.c	.	.	.
4A)	.	(4.f	2.r	.
.	[4.d^)	.	.	.
8r	.	.	.	.
(4.G	.	[4.b-^	.	.
=306	=306	=306	=306	=306
.	4d]	.	.	.
4c^	.	4b-]	2.r	.
.	[8e	.	.	.
.	4e]	.	.	.
8B-	.	[8g	.	.
4A	.	4g]	.	.
.	8c	.	.	.
8e-X)	.	8f)	.	.
=307	=307	=307	=307	=307
.	(4.d	.	.	.
(4.d	.	(4.f	(4.b-	.
.	[4.e-X^)	.	.	.
4.c	.	[4.g^)	[4.ee-X^	.
=308	=308	=308	=308	=308
.	4e-]	.	.	.
[4.f	.	4g]	4ee-]	.
.	[8f	.	.	.
.	4.f]	.	.	.
.	.	[8a	8cc	.
4f]	.	4.a]	4.ff)	.
8e-X)	.	.	.	.
=309	=309	=309	=309	=309
.	(4.f	.	.	.
(4.d	.	(4.f	(4.b-	.
.	[4.e-X^)	.	.	.
4.c	.	[4.g^)	[4.ee-X^	.
=310	=310	=310	=310	=310
.	4e-]	.	.	.
[4.f	.	4g]	4ee-]	.
.	[8f	.	.	.
.	4.f]	.	.	.
.	.	[8a	8cc	.
4f]	.	4.a]	4.ff)	.
8e-X)	.	.	.	.
=311	=311	=311	=311	=311
.	4.f	.	.	.
4.D	.	4.b-	(4.b-	.
.	8eL	.	.	.
.	8e	.	.	.
8C#XL	.	8aL	4.ff	.
.	8eJ	.	.	.
8C#	.	8a	.	.
8C#J	.	8aJ	.	.
=312	=312	=312	=312	=312
.	8fL	.	.	.
.	8f	.	.	.
8DL	.	8b-L	4.b-	.
.	8fJ	.	.	.
8D	.	8b-	.	.
.	8eL	.	.	.
8DJ	.	8b-J	.	.
.	8e	.	.	.
8C#XL	.	8aL	4.ff)	.
.	8eJ	.	.	.
8C#	.	8a	.	.
8C#J	.	8aJ	.	.
=313	=313	=313	=313	=313
.	8fL	.	.	.
.	8f	.	.	.
8DL	.	8b-L	(4.b-	.
.	8fJ	.	.	.
8D	.	8b-	.	.
.	8FL	.	.	.
8DJ	.	8b-J	.	.
.	8F	.	.	.
8C#XL	.	8fL	4.bn)	.
.	8FJ	.	.	.
8C#	.	8f	.	.
8C#J	.	8fJ	.	.
=314	=314	=314	=314	=314
.	(4.G	.	.	.
(4.C	.	(4.e-X	(4.cc	.
.	[4.A-X)	.	.	.
[4.F	.	[4.d	[4.bn	.
=315	=315	=315	=315	=315
.	4.A-]	.	.	.
4F]	.	4.d]	4.b]	.
.	(4.A-X	.	.	.
8C	.	.	.	.
4.c)	.	4.f)	4.dd)	.
=316	=316	=316	=316	=316
.	4.G	.	.	.
(4.C	.	(4.e-X	(4.cc	.
.	[4.A-X	.	.	.
[4.F	.	[4.d	[4.bn	.
=317	=317	=317	=317	=317
!!linebreak:original
.	4.A-]	.	.	.
!!linebreak:original
4F]	.	4.d])	4.b]	.
.	4.An)	.	.	.
8C	.	.	.	.
4.c)	.	4.f	4.dd	.
=318	=318	=318	=318	=318
.	[4.B-	.	.	.
(2.C	.	4.e	4.cc)	.
.	8B-L]	.	.	.
.	8e'	.	.	.
.	.	4r	4r	.
.	8f'J	.	.	.
.	.	8r	8r	.
=319	=319	=319	=319	=319
.	8a'L	.	.	.
.	8g'	.	.	.
2.BB-X)	.	2.c	2.r	.
.	8f'J	.	.	.
.	8e'L	.	.	.
.	8d'	.	.	.
.	8c'J	.	.	.
=320	=320	=320	=320	=320
.	8cL	.	.	.
.	8r	.	.	.
8AAL	.	[4.f	4cc 4ff	.
.	8cJ	.	.	.
8r	.	.	.	.
.	8c	.	.	.
8AAJ	.	.	8cc 8ff	.
.	8r	.	.	.
8AA	.	8fL]	8cc 8ff	.
.	8r	.	.	.
8r	.	8a'	8r	.
8r	.	8b-'J	8r	.
=321	=321	=321	=321	=321
.	34%25r	.	.	.
2.r	.	8cc'L	4r	.
.	.	8b-'	.	.
.	.	8a'J	(8ff	.
.	.	8g'L	8eeL)	.
.	.	8cc'	8r	.
.	.	8b-'J	(8ggJ	.
=322	=322	=322	=322	=322
.	34%25r	.	.	.
2.r	.	8a'L	8ffL)	.
.	.	8cc'	8r	.
.	.	8f'J	(8aaJ	.
!	!	!	!LO:TX:b:i:t=cresc.	!
.	.	8e'L	8ggL)	.
.	.	8cc'	8r	.
!	!LO:TX:a:i:t=cresc.	!	!	!
.	.	8g'J	(8bb-J	.
=323	=323	=323	=323	=323
.	34%25r	.	.	.
2.r	.	8f'L	8aaL)	.
.	.	8g'	8r	.
.	.	8a'J	(8cccJ	.
.	.	8b-'L	8aaL)	.
.	.	8cc'	8r	.
.	.	8cc#X'J	8ggJ	.
=324	=324	=324	=324	=324
.	[4.d	.	.	.
8DDL	.	4dd	8aL 8ff#X	.
8r	.	.	8r	.
.	8dL]	.	.	.
!	!	!	!	!
8DJ	.	8dd	8aJ 8ff#	.
.	8f#X'	.	.	.
8D	.	8dd	8ff#	.
.	8g'J	.	.	.
8r	.	8r	8r	.
8r	.	8r	8r	.
=325	=325	=325	=325	=325
.	8a'L	.	.	.
.	8g'	.	.	.
2.r	.	4r	2.r	.
.	8f#X'J	.	.	.
.	8e'L	.	.	.
.	.	(8dd	.	.
.	8a'	.	.	.
.	.	8cc#XL)	.	.
.	8g'J	.	.	.
.	.	8r	.	.
.	.	(8eeJ	.	.
=326	=326	=326	=326	=326
.	8f#X'L	.	.	.
.	8a'	.	.	.
2.r	.	8ddL)	2.r	.
.	8d'J	.	.	.
.	.	8r	.	.
.	8c#X'L	.	.	.
.	.	(8ff#XJ	.	.
.	8a'	.	.	.
.	.	8eeL)	.	.
.	8e'J	.	.	.
!	!	!LO:TX:b:i:t=cresc.	!	!
.	.	8r	.	.
.	.	(8ggJ	.	.
=327	=327	=327	=327	=327
!!linebreak:original
!LO:TX:a:i:t=cresc.	!	!	!	!
.	8d'L	.	.	.
.	8e'	.	.	.
!!linebreak:original
2.r	.	8ff#XL)	2.r	.
.	8f'J	.	.	.
.	.	8r	.	.
.	8f#X'L	.	.	.
.	.	(8aaJ	.	.
.	8g'	.	.	.
.	.	8ddL)	.	.
.	8a'J	.	.	.
.	.	8r	.	.
.	.	8ccJ	.	.
=328	=328	=328	=328	=328
.	8GL 8d	.	.	.
.	8r	.	.	.
!	!	!	!	!
[4.G	.	8bnL 8gg	8GL 8g	.
.	8GJ 8d	.	.	.
.	.	8r	8r	.
.	8G 8d	.	.	.
.	.	8bJ 8gg	8GJ 8g	.
.	8r	.	.	.
8GL]	.	8b 8gg	8G 8g	.
.	8r	.	.	.
8Bn'	.	8r	8r	.
8c'J	.	8r	8r	.
=329	=329	=329	=329	=329
.	4r	.	.	.
8d'L	.	4r	2.r	.
.	(8g	.	.	.
8c'	.	.	.	.
.	8f#XL)	.	.	.
8Bn'J	.	(8g	.	.
.	8r	.	.	.
8A'L	.	8f#XL)	.	.
.	(8aJ	.	.	.
8d'	.	8r	.	.
8c'J	.	(8aJ	.	.
=330	=330	=330	=330	=330
.	8gL)	.	.	.
.	8r	.	.	.
8Bn'L	.	8gL)	2.r	.
.	(8bnJ	.	.	.
8d'	.	8r	.	.
!	!LO:TX:b:i:t=cresc.	!	!	!
.	8aL)	.	.	.
8G'J	.	(8bnJ	.	.
.	8r	.	.	.
!LO:TX:b:i:t=cresc.	!	!LO:TX:b:i:t=cresc.	!	!
8F#X'L	.	8aL)	.	.
.	(8ccJ	.	.	.
8d'	.	8r	.	.
8A'J	.	(8ccJ	.	.
=331	=331	=331	=331	=331
.	8bnL)	.	.	.
.	8r	.	.	.
8G'L	.	8bnL)	2.r	.
.	(8ddJ	.	.	.
8A'	.	8r	.	.
.	8bL)	.	.	.
8Bn'J	.	(8ddJ	.	.
.	8r	.	.	.
8c'L	.	8bL)	.	.
.	8aJ	.	.	.
8d'	.	8r	.	.
8d#X'J	.	8aJ	.	.
=332	=332	=332	=332	=332
.	[4.e	.	.	.
8EL	.	8g#XL 8bn	8eeL 8eee	.
8r	.	8r	8r	.
.	8eL]	.	.	.
8eJ	.	8g#J 8b	8eeJ 8eee	.
.	8g#X'	.	.	.
8e	.	8g# 8b	8ee 8eee	.
.	8a'J	.	.	.
8r	.	8r	8r	.
8r	.	8r	8r	.
=333	=333	=333	=333	=333
.	8bn'L	.	.	.
.	8a'	.	.	.
4r	.	4r	4r	.
.	8g#X'J	.	.	.
.	8f#X'L	.	.	.
8r	.	(8e	(8ee	.
.	8b'	.	.	.
4A	.	8d#XL)	8dd#XL)	.
.	8a'J	.	.	.
.	.	8r	8r	.
8r	.	(8f#XJ	(8ff#XJ	.
=334	=334	=334	=334	=334
!	!LO:TX:b:i:t=cresc.	!	!	!
.	8g#X'L	.	.	.
.	8bn'	.	.	.
!	!	!	!LO:TX:b:i:t=cresc.	!
4G#X	.	8eL)	8eeL)	.
.	8e'J	.	.	.
!	!	!LO:TX:b:i:t=cresc.	!	!
.	.	8r	8r	.
.	8d#X'L	.	.	.
8r	.	(8g#XJ	(8gg#XJ	.
.	8b'	.	.	.
!LO:TX:b:i:t=cresc.	!	!	!	!
4D#X	.	8f#XL)	8ff#XL)	.
.	8f#X'J	.	.	.
.	.	8r	8r	.
8r	.	(8aJ	(8aaJ	.
=335	=335	=335	=335	=335
.	8e'L	.	.	.
.	8f#X'	.	.	.
4E	.	8g#XL)	8gg#XL)	.
.	8g'J	.	.	.
.	.	8r	8r	.
.	8g#X'L	.	.	.
8r	.	(8bnJ	(8bbnJ	.
.	8a'	.	.	.
4dn	.	8e)	8eeL)	.
.	8bn'J	.	.	.
.	.	8r	8r	.
8r	.	8r	8eeJ	.
=336	=336	=336	=336	=336
!!linebreak:original
.	(4.a	.	.	.
!!linebreak:original
(2.c	.	(2.a	([4.ee	.
.	[4.e)	.	.	.
.	.	.	8eeL]	p
!	!	!	!LO:TX:b:i:t=dolce	!
.	.	.	8gg#X	.
.	.	.	8aaJ	.
=337	=337	=337	=337	=337
.	4.e]	.	.	.
2.d	.	2.bn	8cccL	.
.	.	.	8bbn	.
.	[4.e	.	.	.
.	.	.	8aaJ	.
.	.	.	8gg#XL	.
.	.	.	8ff	.
.	.	.	8eeJ)	.
=338	=338	=338	=338	=338
.	(4.e]	.	.	.
4.c)	.	4.a)	(4.ee	.
.	[4.f^	.	.	.
[4.c^	.	[4.a^	[4.ee-X^	.
=339	=339	=339	=339	=339
.	4.f]	.	.	.
4.c]	.	4.a]	4.ee-]	.
.	4.f#X)	.	.	.
4.c	.	4.a	4.dd)	.
=340	=340	=340	=340	=340
.	4d	.	.	.
(2.B-	.	(2.g	([4.dd	.
.	8r	.	.	.
.	[4.d	.	.	.
.	.	.	8ddL]	.
.	.	.	8ff#X	.
.	.	.	8ggJ	.
=341	=341	=341	=341	=341
.	4.d]	.	.	.
2.c	.	2.a	8bb-L	.
.	.	.	8aa	.
.	[4.d	.	.	.
.	.	.	8ggJ	.
.	.	.	8ff#XL	.
.	.	.	8ee-X	.
.	.	.	8ddJ)	.
=342	=342	=342	=342	=342
.	(4.d]	.	.	.
4.B-)	.	4.g)	(4.dd	.
.	[4.e-X^	.	.	.
[4.B-^	.	[4.g^	[4.dd-X^	.
=343	=343	=343	=343	=343
.	4.e-]	.	.	.
4.B-]	.	4.g]	4.dd-]	.
.	4.en)	.	.	.
4.B-	.	4.g	4.cc)	.
=344	=344	=344	=344	=344
.	(4.c	.	.	.
(4.A	.	4.f	(4.cc	.
.	[4.Bn^)	.	.	.
[4.G^)	.	[4.f^	[4.dd^	.
=345	=345	=345	=345	=345
.	2.B]	.	.	.
2.G]	.	4.f]	4dd]	.
.	.	.	8ee	.
.	.	4.f	4ff	.
.	.	.	8gg)	]
=346	=346	=346	=346	=346
.	(4.c	.	.	.
(4.A	.	4.f	(4.cc	.
.	[4.Bn^)	.	.	.
[4.G^)	.	[4.f^	[4.dd^	.
=347	=347	=347	=347	=347
.	2.B]	.	.	.
2.G]	.	2.f]	4dd]	.
.	.	.	8ee	.
.	.	.	4ff	.
.	.	.	8gg)	]
=348	=348	=348	=348	=348
.	(4.c	.	.	.
(4.A	.	4.f	(4.cc	.
.	[4.Bn)	.	.	.
[4.G)	.	[4.f	[4.dd^)	.
=349	=349	=349	=349	=349
!!linebreak:original
.	4.B]	.	.	.
!!linebreak:original
4.G]	.	4.f]	2.dd_	.
.	[4.Bn	.	.	.
[4.F#X	.	[4.f#X	.	.
=350	=350	=350	=350	=350
.	4.B]	.	.	.
4.F#]	.	4.f#]	4.dd]	.
.	[4.Bn	.	.	.
[4.Fn	.	[4.g	[4.dd	.
=351	=351	=351	=351	=351
.	4.B]	.	.	.
4.F]	.	4.g]	4.dd]	.
.	[4.B-X	.	.	.
[4.E	.	[4.g [4.dd-X	[4.gg	.
=352	=352	=352	=352	=352
.	4.B-]	.	.	.
4.E]	.	4.g] 4.dd-]	4.gg]	.
.	[4.A	.	.	.
[4.F	.	[4.f	[4.cc	.
=353	=353	=353	=353	=353
.	4.A]	.	.	.
4.F]	.	4.f]	4.cc]	.
.	[4.A-X	.	.	.
[4.D	.	[4.f [4.bn	[4.ff	.
=354	=354	=354	=354	=354
.	4.G#X	.	.	.
4.D]	.	4.f] 4.b]	4.ff]	.
.	[4.A	.	.	.
[4.C	.	[4.f	[4.cc	.
=355	=355	=355	=355	=355
.	4.A]	.	.	.
4.C]	.	4.f]	4.cc]	.
.	4.G	.	.	.
4.CC 4.C	.	4.B-X	4.e	.
=356	=356	=356	=356	=356
.	2.F	.	.	.
2.FF	.	2.A	[4.a	.
.	.	.	8aL]	.
.	.	.	8g	.
.	.	.	8fJ	.
=357	=357	=357	=357	=357
!	!	!	!	!
.	[4.A	.	.	.
[2.F	.	2.e-X	[4.cc	.
.	8AL]	.	.	.
.	8B-	.	.	.
.	.	.	8ccL]	.
.	8cJ	.	.	.
.	.	.	8b-	.
.	.	.	8aJ	[
=358	=358	=358	=358	=358
.	4.B-	.	.	.
4.F]	.	4.d	4.dd	.
.	[4.d	.	.	.
[4.F	.	[4.f	[4.ff	.
=359	=359	=359	=359	=359
.	4d]	.	.	.
4.F]	.	4.f]	4ff]	.
.	8B-	.	.	.
.	4A	.	.	.
.	.	.	8dd	.
4.F	.	4.en	4cc	.
.	8G	.	.	.
.	.	.	8b-	.
=360	=360	=360	=360	=360
.	[4.F [4.c	.	.	.
[2.F	.	[4.a	4.a	.
.	8FL] 8c]	.	.	.
.	8B-	.	.	.
.	.	8aL]	[4.ff	.
.	8AJ	.	.	.
.	.	8g	.	.
.	.	8fJ	.	.
=361	=361	=361	=361	=361
.	[4.e-X	.	.	.
2.F_	.	[4.cc	4.ff]	.
.	8e-L]	.	.	.
.	8d	.	.	.
.	.	8ccL]	4.ff#X	.
.	8cJ	.	.	.
.	.	8b-	.	.
.	.	8aJ	.	.
=362	=362	=362	=362	=362
.	4.B-	.	.	.
2.F_	.	4.g	4.gg	.
.	[4.d	.	.	.
.	.	[4.b-	[4.bb-	.
=363	=363	=363	=363	=363
.	4d]	.	.	.
4.F]	.	4b-]	4bb-]	.
.	8B-	.	.	.
.	4G	.	.	.
.	.	8g	8gg	.
4.F	.	4d	4dd	.
.	8B-	.	.	.
.	.	8e	8ee	.
=364	=364	=364	=364	=364
!!linebreak:original
.	4.A	.	.	.
!!linebreak:original
4.F	.	4.f	([4.ff	.
.	4r	.	.	.
4r	.	4r	8ffL]	.
.	8r	.	.	.
.	.	.	8gg	.
8r	.	8r	8aaJ	.
=365	=365	=365	=365	=365
.	([4.G	.	.	.
(2.C	.	([4.e	2.cc)	.
.	8GL]	.	.	.
.	8A	.	.	.
.	.	8eL]	.	.
.	8B-J)	.	.	.
.	.	8f	.	.
.	.	8gJ)	.	.
=366	=366	=366	=366	=366
.	4.A	.	.	.
!	!	!	!LO:TX:b:i:t=dim.	!
4FF)	.	4.f	([4.f	.
.	4r	.	.	.
8r	.	.	.	.
4r	.	4r	8fL]	.
.	8r	.	.	.
.	.	.	8g	.
8r	.	8r	8aJ	.
=367	=367	=367	=367	=367
.	([4.E	.	.	.
!LO:TX:b:i:t=dim.	!	!	!	!
!LO:TX:a:i:t=dim.	!	!	!	!
(2.C	.	([4.G	2.c)	.
!	!LO:TX:a:i:t=dim.	!	!	!
.	8EL]	.	.	.
.	8F	.	.	.
.	.	8GL]	.	.
.	8GJ)	.	.	.
.	.	8A	.	.
.	.	8B-J)	.	.
=368	=368	=368	=368	=368
.	4.F	.	.	.
4FF)	.	4.A	([4.f	.
.	4r	.	.	.
8r	.	.	.	.
4r	.	4r	8fL]	.
.	8r	.	.	.
.	.	.	8g	.
8r	.	8r	8aJ)	.
=369	=369	=369	=369	=369
.	([4.f	.	.	.
2.r	.	2.f	([4.a	.
.	8fL]	.	.	.
.	8d	.	.	.
.	.	.	8aL]	.
.	8cJ)	.	.	.
.	.	.	8b-	.
.	.	.	8ccJ)	.
=370	=370	=370	=370	=370
.	([4.c	.	.	.
[2.FF	.	([4.a	([4.cc	.
.	8cL]	.	.	.
.	8B-	.	.	.
.	.	8aL]	8ccL]	.
.	8AJ)	.	.	.
.	.	8g	8ee	.
.	.	8fJ)	8ffJ)	.
=371	=371	=371	=371	=371
.	([4.B-	.	.	.
!	!	!	!LO:TX:a:i:t=ritard.	!
2.FF_	.	([4.dd	[4.ff	.
.	4B-]	.	.	.
.	.	4dd]	8ffL]	.
.	8A	.	.	.
.	.	.	(8aa'	.
.	.	8cc	8ccc'J)	.
=372	=372	=372	=372	=372
!LO:TX:b:i:t=ritard.	!	!	!	!
.	4.F)	.	.	.
4FF]	.	4.a)	[2.fff	.
.	4r	.	.	.
8r	.	.	.	.
4r	.	4r	.	.
.	8r	.	.	.
8r	.	8r	.	.
=373	=373	=373	=373	=373
!	!LO:TX:a:t=pizz.	!	!	!
.	4c	.	.	.
!	!	!LO:TX:a:t=pizz.	!	!
4FF	.	4A 4f	2.fff_	.
.	8r	.	.	.
.	4r	.	.	.
!LO:TX:a:t=pizz.	!	!	!	!
8r	.	8r	.	.
4r	.	4r	.	.
.	8r	.	.	.
8r	.	8r	.	.
=374	=374	=374	=374	=374
.	4c	.	.	.
4FF	.	4A 4f	4.fff]	.
.	8r	.	.	.
.	4r	.	.	.
8r	.	8r	.	.
4r	.	4r	4r	.
.	8r	.	.	.
8r	.	8r	8r	.
==	==	==	==	==
*-	*-	*-	*-	*-
!!!system-decoration: s1,s2,s3,s4
